<?xml version="1.0" encoding="UTF-8"?>
<map version="1.10" tiledversion="1.11.0" orientation="isometric" renderorder="right-down" width="76" height="76" tilewidth="128" tileheight="64" infinite="0" nextlayerid="8" nextobjectid="1088">
 <properties>
  <property name="region" value="goblinwood"/>
 </properties>
 <tileset firstgid="1" source="terrain.tsx"/>
 <tileset firstgid="89" source="decor.tsx"/>
 <tileset firstgid="102" source="props.tsx"/>
 <layer id="1" name="ground" width="76" height="76">
  <data encoding="csv">
7,7,9,7,8,7,7,7,9,7,7,7,7,9,7,8,9,7,9,8,7,7,7,7,8,7,7,7,27,52,13,55,24,7,7,7,7,7,7,7,7,7,7,7,7,7,9,9,9,7,7,7,7,8,8,7,9,7,7,8,7,9,7,8,8,7,9,7,7,7,8,7,7,7,7,7,
7,7,9,7,8,7,8,9,9,8,9,7,8,9,9,9,7,7,7,7,7,7,9,7,7,7,7,29,19,52,13,55,24,9,7,9,7,9,7,7,7,7,8,7,8,7,7,7,9,7,7,7,8,7,7,9,7,9,8,7,7,7,7,7,7,8,7,9,7,8,7,8,9,7,7,7,
9,7,7,8,7,8,9,7,7,8,7,7,7,7,9,9,8,7,7,9,7,9,7,7,9,7,7,27,50,60,13,55,24,7,9,7,8,8,9,8,8,8,8,9,7,9,7,9,7,7,8,7,8,7,9,7,7,7,7,9,7,7,7,7,7,7,7,7,9,9,7,7,7,9,7,7,
9,7,7,7,9,8,7,7,7,9,7,7,7,7,7,7,7,8,7,8,9,8,7,7,7,9,7,27,52,13,13,55,24,7,7,7,7,9,7,7,7,7,7,7,7,7,7,9,7,7,7,8,7,7,7,7,8,7,7,7,7,7,9,7,7,7,9,7,7,7,9,7,7,7,7,7,
7,7,7,7,7,7,7,7,7,7,7,29,21,21,21,25,9,7,7,7,7,7,9,7,8,7,7,27,52,14,57,47,24,7,9,7,7,7,7,7,8,9,8,7,7,7,7,7,7,7,8,8,9,7,8,7,9,8,7,9,7,8,9,7,7,7,8,7,7,9,7,7,7,7,7,7,
7,9,8,7,7,7,8,8,7,8,29,19,36,44,40,20,21,21,25,7,8,7,7,7,9,7,29,19,52,13,55,1,24,9,7,7,7,7,8,8,7,8,7,8,9,7,9,7,7,9,7,7,7,9,7,7,7,7,7,7,9,7,7,7,7,7,8,7,7,7,7,7,7,8,7,9,
9,8,7,7,8,7,7,7,29,21,19,36,46,10,45,44,44,40,20,25,7,7,7,7,7,7,27,50,60,15,55,22,32,7,7,9,9,7,9,8,8,7,7,7,7,7,7,7,7,7,7,7,7,7,8,7,7,7,7,7,7,9,7,8,9,7,7,7,7,7,7,7,7,7,8,7,
7,7,9,9,8,7,7,29,19,1,36,46,10,10,10,12,10,45,40,20,25,9,7,8,7,7,27,52,13,14,55,24,7,9,9,7,8,7,7,9,7,7,7,8,7,7,7,7,7,8,7,8,7,7,7,7,7,9,8,7,7,7,7,7,7,7,8,7,7,7,7,7,7,8,8,8,
7,7,8,7,9,7,29,19,1,36,46,10,11,10,10,12,10,10,45,40,20,25,7,7,7,7,27,52,13,14,55,24,8,7,8,9,7,7,7,7,29,21,21,21,21,21,25,8,9,8,7,7,7,7,8,9,8,7,9,7,7,9,7,7,7,9,7,8,7,8,7,7,8,7,7,8,
7,7,7,7,7,7,27,36,44,46,10,12,10,10,10,10,10,10,11,45,40,24,7,9,9,29,19,52,15,57,47,24,7,9,7,8,7,29,21,21,19,1,1,6,5,1,20,25,9,7,7,7,8,7,7,9,7,7,7,7,7,7,9,9,7,7,8,7,7,7,7,7,8,9,7,7,
7,8,9,7,7,7,27,38,12,10,10,10,11,11,10,10,10,10,10,10,41,24,7,7,7,27,50,60,13,55,22,32,29,21,21,21,21,19,1,2,1,1,1,1,6,1,5,20,21,21,25,7,7,7,9,8,7,7,7,8,9,7,7,7,7,7,7,7,7,7,7,7,7,7,8,7,
7,7,7,7,7,29,19,38,10,10,10,10,10,12,10,12,10,10,10,10,41,24,7,9,9,27,52,13,13,55,24,7,27,1,5,6,1,1,6,1,1,3,2,6,1,1,1,1,1,1,20,25,8,7,9,7,9,7,7,7,7,7,9,7,8,7,7,7,7,7,7,7,8,7,7,9,
9,8,9,7,7,27,1,38,10,10,10,11,10,11,11,10,12,10,10,12,41,24,7,7,29,19,52,14,57,47,24,29,19,1,1,1,3,2,36,44,44,44,40,1,6,1,6,2,1,1,5,20,25,7,7,7,7,7,8,9,7,7,7,8,7,7,7,7,8,7,7,7,7,9,7,7,
7,8,7,7,9,31,26,38,10,10,12,10,10,11,10,10,11,10,12,12,41,24,7,7,27,50,60,13,55,22,28,19,1,1,6,1,1,36,46,10,10,11,45,44,40,1,1,1,6,4,1,22,32,9,7,7,7,7,7,8,7,7,7,7,8,7,7,7,7,7,8,7,7,7,7,7,
7,7,7,7,7,7,27,38,10,11,10,10,10,12,12,10,12,12,10,10,41,24,7,9,27,52,13,14,55,20,19,1,5,1,3,5,36,46,11,10,10,10,10,10,45,44,44,40,5,1,1,24,7,7,7,8,8,7,7,9,9,7,7,9,9,7,7,7,9,7,8,7,7,7,7,9,
7,7,7,7,7,7,27,38,10,10,10,10,11,10,10,10,10,11,10,10,41,24,9,7,27,52,15,13,55,2,1,1,1,1,1,36,46,11,10,10,10,12,10,10,12,10,11,45,40,3,1,24,7,7,7,7,7,29,21,21,25,7,7,7,7,7,9,9,9,7,7,8,7,7,7,7,
7,7,9,7,7,9,27,38,10,12,12,12,10,11,10,10,10,11,10,43,33,24,8,8,27,52,13,57,47,1,2,3,1,36,44,46,10,10,10,10,10,12,12,10,10,11,10,10,41,1,1,24,7,7,29,21,21,19,1,5,20,21,25,7,7,7,7,8,7,7,7,7,9,7,8,8,
7,7,7,8,9,7,27,34,39,10,11,12,11,10,10,10,43,35,35,33,22,32,7,8,27,52,15,55,4,1,1,1,1,38,10,11,10,10,10,12,10,10,10,10,12,11,12,11,41,1,1,20,25,29,19,4,1,1,1,2,1,3,24,7,7,9,7,7,7,7,7,7,7,9,7,7,
8,7,7,8,7,8,31,26,34,35,39,43,35,39,43,35,33,6,1,22,32,7,7,7,27,52,13,55,1,1,1,1,4,38,10,10,10,10,10,10,12,10,10,10,10,10,10,10,41,3,1,3,20,19,3,1,6,2,1,6,5,1,20,25,7,9,8,8,7,7,8,7,7,9,7,7,
7,9,7,7,7,7,7,31,30,26,34,33,4,38,45,40,6,22,30,32,7,7,7,7,27,52,14,55,4,1,1,5,2,38,10,12,10,10,11,10,10,10,11,12,10,10,12,43,33,1,1,1,1,1,6,4,1,6,1,3,6,1,1,20,25,7,7,7,7,7,7,7,7,7,7,7,
7,9,7,7,9,7,7,7,7,31,30,30,26,38,10,41,22,32,9,9,7,7,7,9,27,52,13,55,1,1,1,1,1,38,10,10,10,10,12,10,10,12,10,10,10,11,10,41,1,1,3,1,1,1,2,1,1,1,1,1,1,1,4,1,24,7,7,9,8,7,8,7,7,7,7,8,
7,7,7,7,7,7,8,7,7,7,8,7,27,38,11,41,24,8,7,7,9,8,7,7,27,52,14,59,54,5,6,1,1,34,39,12,10,10,10,12,11,10,12,12,10,10,12,41,4,1,1,1,1,6,1,4,1,2,1,1,1,1,4,1,24,7,7,7,8,9,7,7,9,9,7,7,
8,7,8,7,7,7,9,7,7,9,7,7,27,38,10,41,24,7,7,9,7,7,7,7,27,52,14,13,55,22,26,3,1,1,34,39,12,10,10,12,10,10,12,10,10,10,43,33,3,1,4,1,4,1,3,2,6,6,1,1,1,1,1,1,24,7,8,7,7,8,7,9,7,9,9,7,
8,7,7,7,7,7,7,8,7,7,7,7,27,38,10,41,24,7,7,7,7,7,7,7,27,52,13,13,55,24,27,1,1,1,4,34,39,10,12,10,10,10,10,12,10,43,33,1,2,1,2,3,1,3,6,6,1,1,1,1,5,1,1,2,24,7,7,7,7,7,7,7,7,8,7,7,
7,7,7,8,9,7,7,7,7,7,7,7,27,38,10,41,24,7,7,9,7,7,7,7,27,48,53,14,55,20,19,6,4,1,2,1,34,35,39,10,12,10,43,35,35,33,5,1,1,1,1,1,1,1,1,1,5,1,1,6,1,1,1,2,24,7,8,7,7,8,7,8,9,7,8,7,
7,9,8,7,7,8,7,7,7,9,9,29,19,38,10,41,20,21,25,7,7,8,8,9,31,26,52,14,55,6,1,6,1,1,1,1,5,6,34,39,10,43,33,4,1,1,4,2,5,1,1,5,1,5,1,6,1,1,1,1,1,1,1,5,24,7,7,7,7,7,7,8,9,9,8,7,
7,9,7,8,7,7,7,7,7,7,7,27,1,38,10,41,1,3,24,8,7,7,8,8,7,27,52,13,55,1,1,1,1,1,1,2,3,1,6,34,39,41,2,1,3,1,4,5,2,1,1,1,1,1,2,1,1,2,6,1,1,1,1,22,32,9,7,7,7,7,8,7,9,7,9,7,
9,7,7,8,7,7,9,7,7,7,7,27,3,38,10,45,40,1,20,25,7,9,7,7,9,27,52,14,55,3,1,1,5,4,1,4,1,1,1,36,46,41,4,1,1,1,1,6,1,1,1,2,1,1,5,1,6,5,1,1,1,1,22,32,7,7,7,7,7,7,9,9,7,7,7,8,
7,7,7,7,7,8,7,7,7,7,7,27,1,34,39,10,41,5,4,20,25,7,7,7,8,27,52,13,55,5,1,5,5,1,22,30,30,26,1,38,10,41,1,2,1,1,1,6,1,1,22,30,30,26,1,4,3,1,3,22,30,30,32,9,9,7,7,7,7,9,7,7,7,7,8,8,
7,9,7,9,7,7,7,7,7,7,29,19,3,1,38,11,41,1,1,1,24,7,7,8,29,19,52,15,55,1,1,1,3,1,24,8,7,27,1,38,12,41,1,1,1,1,1,6,22,30,32,7,7,31,30,30,30,30,30,32,7,7,7,8,7,7,7,7,9,7,9,7,7,7,7,7,
8,7,7,7,7,7,7,7,8,7,27,1,1,1,38,11,41,5,1,1,20,25,9,7,27,50,60,14,55,2,1,1,2,4,24,7,8,27,1,38,10,41,1,5,1,1,22,30,32,7,9,7,8,7,7,7,7,7,7,7,7,7,8,7,7,7,7,7,7,7,7,7,8,7,7,7,
8,8,7,7,7,8,8,7,7,8,27,1,1,1,34,39,41,1,1,3,1,24,8,7,27,52,13,13,55,1,1,1,1,1,24,7,7,27,1,38,10,41,1,1,22,30,28,21,21,21,21,25,7,9,7,7,8,7,7,7,9,7,7,9,8,7,7,7,7,8,7,9,9,7,7,7,
7,8,7,7,7,7,9,7,7,8,27,1,6,4,1,38,45,40,1,3,1,24,9,9,27,52,13,57,47,2,1,1,3,1,24,8,29,19,1,38,11,41,1,1,20,21,19,1,1,1,1,20,25,7,7,7,9,7,8,7,7,7,7,7,7,7,7,8,7,7,7,7,7,7,7,7,
7,7,7,7,7,7,7,7,8,7,27,1,5,4,6,38,10,41,3,1,3,24,8,29,19,52,13,55,3,1,1,6,1,22,32,9,27,2,6,38,11,41,6,1,1,1,2,2,3,1,2,1,20,21,21,25,7,9,7,8,8,7,8,7,8,7,7,8,7,8,7,7,7,8,7,7,
7,7,7,8,7,7,7,8,8,7,27,2,5,1,1,34,39,45,40,5,1,24,7,27,50,60,13,55,1,1,2,1,22,32,7,7,27,1,4,38,10,41,1,4,5,1,2,3,5,1,2,1,1,1,1,24,7,9,7,7,9,7,9,7,7,7,7,8,7,7,8,9,7,7,7,9,
7,7,8,9,7,7,7,7,7,7,31,26,1,1,1,1,38,10,41,1,4,24,7,27,52,13,57,47,1,1,1,22,32,7,9,7,27,1,36,46,43,33,4,1,3,1,5,4,1,5,1,1,4,1,1,24,7,7,7,7,7,7,8,7,9,8,7,8,8,7,7,7,7,8,7,7,
7,7,7,7,7,7,9,7,9,7,7,27,2,2,6,6,34,39,45,40,5,20,21,19,52,13,55,1,22,30,30,32,7,9,7,7,27,1,38,10,41,5,22,26,1,1,6,1,1,1,1,1,1,6,1,24,7,7,9,7,7,7,9,7,7,8,7,7,7,7,7,9,9,9,8,8,
7,7,7,7,7,7,7,8,8,7,7,31,26,5,1,1,1,34,39,45,40,3,1,1,52,13,55,1,20,25,8,8,7,7,7,29,19,5,38,12,41,1,24,27,1,1,1,1,1,1,1,1,2,1,1,24,7,7,7,9,7,7,7,7,7,7,7,7,7,8,7,7,7,8,7,7,
8,7,7,7,9,8,7,7,7,7,7,7,31,30,30,30,26,1,38,10,45,40,1,50,60,14,55,1,1,24,9,7,7,8,29,19,1,36,46,10,41,1,24,27,1,3,1,1,1,1,1,2,6,6,6,20,25,7,8,7,7,7,7,7,7,8,8,7,9,7,9,7,7,7,8,7,
9,7,8,7,7,9,7,7,7,7,7,7,9,7,7,7,27,1,34,39,10,45,40,52,13,13,55,4,6,20,21,21,21,21,19,1,1,38,11,43,33,1,24,27,6,1,1,1,2,1,2,1,2,1,4,4,24,7,7,7,9,7,9,8,7,7,8,7,7,7,7,9,7,7,8,7,
7,7,7,9,8,7,7,9,7,7,7,7,7,7,8,7,31,26,1,34,35,39,41,52,13,13,55,5,1,1,5,1,1,1,1,1,1,38,10,41,2,6,20,19,1,1,1,2,1,1,1,1,1,4,2,1,24,7,7,7,7,7,7,7,7,7,7,7,7,9,7,8,7,7,8,8,
7,7,7,8,7,7,7,7,7,7,7,7,7,7,7,7,7,31,26,1,1,34,33,52,14,57,47,36,40,4,1,5,6,1,1,4,5,38,10,41,1,1,1,1,22,26,6,5,5,1,6,1,6,1,6,1,24,7,7,7,8,8,7,7,7,7,7,7,7,7,8,8,7,7,7,7,
7,7,7,9,7,7,7,7,9,9,7,7,9,7,9,7,9,29,19,2,4,1,1,52,15,55,36,46,45,44,40,1,5,1,1,4,1,38,43,33,1,5,1,1,24,31,26,6,5,5,1,1,1,1,1,22,32,7,7,9,9,7,8,9,7,7,7,7,7,9,7,8,7,7,7,8,
8,7,7,7,7,7,7,7,7,8,7,7,7,7,7,7,7,27,1,1,4,1,50,60,15,55,34,39,11,11,45,44,44,40,1,4,36,46,41,1,6,3,1,1,20,25,31,30,26,6,4,1,1,2,22,32,8,8,7,9,7,7,9,7,7,7,8,7,7,7,7,7,7,7,7,9,
9,8,7,7,9,9,7,8,7,7,7,7,7,7,7,7,7,31,26,6,6,1,52,13,57,47,1,34,35,35,39,11,10,45,44,44,46,10,41,4,5,1,2,1,22,32,7,8,31,30,30,30,30,30,32,9,9,7,7,7,7,7,9,9,7,7,9,8,8,8,8,7,7,8,7,7,
9,7,7,7,7,7,7,7,7,7,7,8,7,9,7,7,7,8,27,4,1,50,60,13,55,4,6,6,1,1,34,35,35,39,10,10,11,10,41,1,1,6,1,1,20,25,7,7,9,9,7,7,7,7,9,7,7,9,7,7,7,7,9,7,8,7,7,7,7,7,7,7,9,8,7,7,
9,7,7,7,9,7,7,7,7,9,7,8,7,7,7,7,9,7,31,30,26,52,15,15,55,1,3,1,3,4,1,1,1,34,35,35,39,10,45,44,40,1,1,1,4,24,29,21,21,25,8,7,8,7,8,7,7,7,7,9,8,7,7,7,8,9,8,7,7,7,7,8,7,7,8,8,
7,7,7,7,7,8,7,7,7,9,8,8,7,7,7,7,7,7,8,29,19,52,14,57,47,1,5,1,3,5,1,4,3,2,1,1,34,35,39,10,45,40,1,1,2,20,19,2,5,20,21,25,8,7,9,8,7,7,7,7,7,7,7,7,7,9,9,7,9,7,8,7,7,8,8,7,
7,7,7,7,7,7,9,7,9,7,8,9,8,9,9,7,9,8,9,27,50,60,13,55,22,30,30,26,1,4,1,3,6,3,5,2,1,3,34,39,10,45,40,2,4,6,1,1,1,5,1,20,25,7,7,7,7,7,29,21,21,21,21,25,8,7,9,7,7,7,7,8,7,9,7,7,
7,7,9,7,8,8,7,7,7,7,8,7,7,9,7,7,7,7,29,19,52,15,57,47,24,7,8,27,1,1,1,1,1,1,5,1,1,1,1,34,39,10,45,40,1,50,58,58,58,54,1,1,20,21,25,7,29,21,19,6,1,1,1,20,21,25,7,8,9,7,7,7,7,7,7,7,
7,7,7,7,9,7,7,7,9,7,7,7,9,7,9,7,7,7,27,50,60,13,55,1,20,21,21,19,1,5,1,2,3,1,3,2,1,1,3,1,34,39,10,41,50,60,13,13,15,59,54,6,1,1,20,21,19,1,1,1,6,4,1,3,1,24,7,7,7,9,7,7,7,9,7,9,
8,7,9,8,7,9,7,7,7,7,7,9,7,7,7,7,7,29,19,52,13,14,55,1,1,5,5,3,1,5,4,3,1,1,6,1,1,3,4,1,3,34,35,33,52,15,13,13,13,13,55,1,1,5,6,1,3,3,4,1,1,5,6,1,1,20,21,25,7,7,8,7,7,7,9,7,
7,9,8,9,9,7,7,7,7,7,9,8,7,7,7,7,29,19,50,60,14,57,47,5,1,1,4,1,1,6,1,3,4,1,1,2,1,4,2,4,1,1,2,1,48,53,14,13,13,13,55,6,2,6,6,1,1,5,1,4,1,2,6,1,1,2,2,20,25,9,7,8,7,9,7,7,
7,8,7,7,7,7,8,7,7,7,9,8,7,8,7,8,27,50,60,13,57,47,1,1,1,1,4,1,1,1,1,1,22,30,30,26,4,22,30,30,30,26,1,6,1,48,49,49,49,49,47,1,1,4,1,6,4,6,1,1,1,1,1,6,1,5,1,6,20,25,7,7,7,7,7,7,
7,7,7,7,9,7,7,7,9,8,9,8,7,7,7,7,27,52,13,13,55,1,1,1,1,5,1,3,4,1,1,1,20,25,9,31,30,32,9,7,7,31,26,2,1,4,36,44,44,44,40,4,4,1,1,36,44,44,44,44,44,44,40,4,1,1,4,1,1,20,21,25,9,9,7,8,
7,7,7,9,7,7,7,9,7,7,9,8,7,9,7,29,19,52,13,57,47,5,1,1,5,1,5,5,1,5,3,1,1,24,8,7,7,7,7,7,7,8,31,26,6,2,34,39,10,10,45,40,3,36,44,46,78,86,86,86,86,82,45,40,1,1,5,6,1,3,5,24,9,7,7,7,
7,7,7,8,8,8,9,7,7,7,8,7,9,9,7,27,50,60,14,55,1,2,1,3,1,1,5,1,1,1,1,1,1,24,8,8,9,9,7,7,7,7,7,31,30,26,4,34,35,39,10,45,44,46,78,86,88,16,16,18,16,87,82,45,40,1,1,1,1,1,5,24,7,7,7,7,
7,7,7,9,7,7,7,7,9,7,7,7,9,7,29,19,52,15,57,47,1,1,1,1,1,1,3,1,4,6,1,1,1,24,7,9,7,7,8,7,7,7,7,7,7,31,26,1,1,34,39,10,10,78,88,17,17,16,16,16,16,16,87,82,41,1,1,1,1,4,22,32,7,7,8,7,
7,9,7,8,7,7,8,7,8,7,7,7,7,9,27,50,60,14,55,1,1,3,5,1,1,2,2,1,1,3,1,1,22,32,7,7,7,7,7,7,8,7,9,8,7,29,19,5,1,1,34,35,39,80,16,18,17,16,18,16,16,17,16,83,41,1,1,1,5,2,24,7,7,7,9,7,
8,9,8,7,7,8,7,7,9,7,7,7,8,7,27,52,13,13,55,4,1,6,1,1,1,4,1,1,1,3,1,22,32,7,9,7,8,8,8,9,7,7,8,7,7,27,1,1,1,5,4,36,46,80,16,16,17,18,16,16,16,16,17,83,45,40,1,1,1,4,24,9,8,8,8,7,
9,7,8,8,7,7,7,7,8,8,7,7,9,9,27,52,13,57,47,3,1,1,1,1,1,2,3,1,5,2,5,24,7,7,7,7,7,9,7,8,7,9,7,7,7,27,3,1,1,1,6,38,78,88,18,16,17,16,17,16,16,16,16,87,82,41,1,1,4,5,24,8,7,7,8,7,
7,7,7,7,7,8,7,9,7,9,7,8,9,29,19,52,13,55,22,26,1,1,5,2,6,1,1,6,1,1,22,32,7,7,7,9,8,8,7,7,7,9,7,7,7,27,1,1,1,6,2,38,76,81,16,16,16,16,16,17,16,16,16,85,75,41,1,1,1,1,24,7,7,7,7,7,
9,7,7,7,8,7,7,7,8,8,7,7,9,27,50,60,13,55,24,31,30,26,2,1,4,1,1,3,4,22,32,7,9,7,7,9,7,7,7,7,8,7,7,7,29,19,5,1,1,1,6,34,39,80,16,17,16,17,16,16,17,17,18,83,43,33,4,1,1,4,24,8,7,9,8,9,
9,7,7,7,7,7,7,7,7,7,7,8,7,27,52,14,57,47,24,8,7,31,30,26,2,1,1,22,30,32,7,7,9,9,7,7,9,7,7,7,9,9,9,7,27,1,1,1,4,1,1,1,38,76,81,16,16,18,18,17,16,18,85,75,41,1,2,1,1,1,24,7,7,7,7,7,
7,7,9,7,7,9,7,9,7,7,7,7,29,19,52,13,55,22,32,8,7,7,7,31,30,30,30,32,7,7,7,7,7,7,8,9,7,7,7,7,7,7,7,7,27,1,1,1,1,1,3,1,34,39,76,81,17,16,16,17,16,85,75,43,33,1,4,6,1,22,32,7,8,7,7,7,
7,7,9,7,8,9,8,7,8,8,8,9,27,1,52,14,55,24,7,7,8,7,7,8,7,7,8,7,7,9,7,8,7,8,7,7,9,7,7,7,8,9,7,7,31,26,1,1,1,6,1,1,4,34,39,76,77,77,77,77,77,75,43,33,1,1,5,4,2,24,7,7,9,7,7,9,
9,8,7,7,7,7,9,9,9,7,7,7,27,50,60,13,55,24,7,7,7,9,7,7,7,7,7,7,7,7,8,7,7,7,9,7,7,7,9,9,7,8,7,7,9,31,26,1,1,1,1,1,1,1,34,35,35,35,35,35,35,35,33,6,1,1,1,1,22,32,7,7,9,7,7,9,
9,9,7,8,7,7,7,7,7,7,8,7,27,52,13,13,55,24,8,7,7,7,7,7,9,8,7,7,7,8,8,8,7,7,7,7,7,8,7,7,7,7,7,7,8,7,31,26,2,1,1,1,1,1,6,1,3,2,5,5,1,1,5,1,6,1,1,1,20,25,7,9,7,7,8,9,
7,7,7,7,7,7,7,7,7,7,7,7,27,52,13,57,47,24,7,8,8,7,7,7,7,7,7,9,7,7,7,7,7,8,7,7,8,9,7,7,9,7,7,7,7,7,8,31,30,30,26,1,1,5,1,3,1,1,1,4,3,1,4,4,6,1,6,1,22,32,8,7,7,7,9,7,
7,7,7,8,7,8,7,9,9,8,7,29,19,52,14,55,22,32,7,7,7,7,8,7,9,7,9,9,7,7,7,7,7,7,7,7,7,7,8,7,7,9,7,7,7,7,7,7,7,7,31,26,1,1,3,1,1,6,1,6,6,1,3,3,1,1,1,3,24,7,7,7,8,7,7,7,
7,7,7,7,8,8,7,7,7,7,7,27,5,52,13,55,24,7,7,7,8,7,9,8,7,7,7,7,8,7,7,7,7,7,7,9,7,7,7,9,9,9,7,9,7,7,8,7,7,7,7,27,1,1,5,1,1,1,1,22,30,30,30,30,26,1,22,30,32,7,7,7,7,9,9,7,
7,7,9,9,7,7,9,7,9,9,7,27,50,60,13,55,24,7,7,7,7,7,8,8,7,9,7,8,7,7,7,7,7,8,9,7,7,7,8,7,7,7,7,7,7,7,7,7,9,7,8,31,30,26,22,30,26,22,30,32,8,7,8,9,31,30,32,7,8,9,7,8,7,8,7,7,
7,7,7,8,9,7,7,8,7,9,8,27,52,13,14,55,24,7,7,7,8,7,9,7,7,7,7,7,7,8,7,9,8,7,7,7,7,7,7,8,7,8,7,7,7,7,8,7,8,8,7,8,7,31,32,7,31,32,7,7,7,8,7,8,7,7,9,9,7,7,7,7,7,7,9,7,
7,7,7,7,7,7,8,7,7,7,8,27,52,13,57,47,24,7,7,7,8,7,8,7,8,7,7,8,7,8,8,7,7,8,7,7,7,7,7,7,9,7,7,8,9,8,9,7,7,7,7,8,8,9,7,7,8,8,7,7,7,7,7,7,7,7,7,7,8,7,8,7,7,9,9,7,
9,7,7,7,7,7,7,7,9,7,9,27,52,13,55,22,32,7,9,8,7,9,7,9,7,7,7,7,7,9,7,7,8,7,9,7,8,7,7,7,8,7,9,7,7,7,7,7,7,7,7,7,7,8,7,7,7,7,7,7,7,7,7,7,8,7,7,7,7,7,8,7,7,7,8,7,
7,7,7,9,7,7,7,7,9,7,7,27,52,13,55,24,7,7,7,7,8,9,7,7,7,7,9,7,7,8,7,7,7,7,9,7,7,9,9,7,7,7,7,9,7,8,7,7,9,7,7,7,7,7,7,9,7,7,7,9,7,7,7,7,8,9,7,7,7,7,7,7,8,7,9,7
</data>
 </layer>
 <layer id="2" name="decor" width="76" height="76">
  <data encoding="csv">
0,0,93,0,0,0,0,0,93,0,0,0,0,0,0,0,0,0,98,0,93,0,0,93,0,0,0,0,0,0,0,0,0,0,0,97,0,0,0,0,0,0,0,0,97,0,0,93,0,0,0,0,0,93,0,0,0,0,0,0,0,0,0,0,0,0,0,0,0,0,0,0,0,0,0,0,
0,0,0,0,0,0,0,0,0,0,0,0,0,93,0,0,0,97,0,0,0,0,0,97,0,0,0,0,0,0,0,0,0,0,0,0,0,0,93,0,0,0,0,0,0,0,0,0,0,0,93,0,0,0,0,0,0,0,0,0,0,0,0,0,0,0,0,93,0,0,97,0,0,0,97,0,
97,0,0,0,0,98,0,93,0,0,0,0,0,0,0,0,0,0,0,0,0,93,0,0,0,93,0,0,0,0,0,0,0,0,0,0,0,0,0,93,0,0,0,0,0,0,0,0,0,97,93,0,0,0,0,0,0,0,0,0,0,93,93,0,0,0,0,0,0,0,0,0,0,0,0,0,
0,0,93,0,0,0,0,0,0,0,0,0,0,93,93,0,0,0,0,0,0,0,0,0,0,0,0,0,0,0,0,0,0,0,0,0,98,0,0,0,0,0,0,0,0,0,0,0,0,0,0,0,0,0,0,0,0,0,0,0,0,98,0,0,0,0,0,0,0,0,0,0,98,0,0,0,
0,0,0,0,0,0,0,0,0,0,93,0,0,0,0,0,0,0,97,0,93,0,0,0,0,0,0,0,0,0,0,0,0,0,0,0,0,0,97,0,0,0,0,93,0,0,0,97,0,0,0,0,0,0,0,0,0,97,0,0,0,0,0,0,0,0,0,0,0,0,0,0,0,0,93,0,
0,0,0,0,0,0,0,0,0,0,0,0,0,0,0,0,0,0,0,0,0,93,0,0,0,0,0,0,0,0,0,89,0,0,0,0,0,0,0,0,93,98,0,0,0,93,93,0,0,0,0,0,93,0,0,0,0,0,0,0,0,0,0,0,93,0,0,0,0,0,0,93,0,93,0,0,
0,0,98,0,0,0,0,0,0,0,0,0,0,0,0,0,0,0,0,0,0,0,93,0,0,0,0,0,0,0,0,0,0,0,0,0,0,0,0,0,0,0,0,0,0,93,0,0,0,0,0,0,0,0,0,93,0,0,0,0,0,0,0,0,0,0,93,0,0,0,93,0,0,0,98,0,
0,0,0,0,0,0,0,0,0,0,0,0,0,100,99,0,0,0,0,0,0,0,0,98,0,0,0,0,0,0,0,0,0,0,0,0,0,0,0,0,97,0,0,93,0,0,0,0,0,0,0,98,0,0,0,0,0,0,0,0,0,0,0,0,0,0,0,0,0,0,0,0,93,0,0,0,
0,0,0,0,0,0,0,0,0,0,0,0,0,0,100,0,0,0,0,0,0,0,0,0,0,0,0,0,0,0,0,0,0,0,0,0,0,0,0,0,0,0,0,0,0,0,0,0,0,0,0,0,0,0,0,0,0,0,0,0,0,0,0,0,93,0,93,0,0,0,0,0,0,0,0,0,
0,0,93,0,0,0,0,0,0,0,0,95,0,0,95,0,0,0,0,0,0,0,0,0,0,0,0,0,0,0,0,0,0,0,0,0,0,0,0,0,0,0,0,0,101,0,0,0,0,0,0,0,0,0,0,0,0,98,93,97,0,0,0,0,0,98,0,0,0,0,0,0,0,0,0,0,
98,0,0,0,0,0,0,0,0,100,0,0,0,0,0,0,100,0,0,0,0,0,0,0,0,0,0,0,0,0,0,0,0,0,0,0,0,0,0,0,0,0,0,0,0,0,0,0,0,0,0,0,0,0,0,0,0,0,0,0,0,0,0,0,0,97,0,0,0,0,0,0,0,0,0,0,
0,0,0,0,0,0,0,0,0,100,0,0,99,0,100,99,0,0,0,0,0,0,0,0,0,0,0,0,0,0,0,0,0,0,0,0,0,0,0,0,0,0,0,0,0,0,0,0,0,0,0,0,0,0,0,0,0,0,0,0,0,93,0,0,0,0,0,0,0,0,93,0,0,0,0,0,
0,0,0,0,0,0,0,0,0,0,0,0,0,0,95,0,0,0,0,95,0,0,0,0,0,0,0,0,0,0,0,0,0,0,0,0,0,0,0,0,0,0,0,98,89,0,89,0,0,0,0,0,0,0,0,0,93,0,0,0,0,93,0,0,0,0,0,0,0,0,0,93,97,0,0,0,
0,0,0,0,0,0,0,0,0,99,0,0,0,0,0,0,0,0,0,0,0,0,93,0,0,0,0,0,0,0,0,0,0,0,0,0,0,0,0,0,95,0,0,0,0,0,0,0,0,0,0,0,0,0,0,0,0,0,0,0,93,0,0,0,0,0,0,0,0,0,93,0,0,0,0,0,
0,0,0,0,0,0,0,0,0,0,0,0,0,0,0,0,0,100,0,0,0,0,0,0,0,0,0,0,0,0,0,0,0,94,101,0,0,0,0,0,0,0,0,0,0,0,0,0,0,0,0,0,0,0,93,0,0,0,0,0,93,0,93,0,0,0,0,0,0,0,0,0,0,0,0,0,
0,93,0,93,0,0,0,0,0,0,0,0,0,99,0,0,0,0,0,95,0,0,93,0,0,0,0,0,0,0,0,0,0,0,0,0,0,0,100,0,96,0,0,96,0,0,0,0,0,0,94,0,0,0,0,93,0,0,0,0,0,0,0,0,0,0,0,0,0,0,0,0,0,97,0,0,
0,97,0,0,0,0,0,0,0,0,0,0,0,0,0,0,0,99,95,0,0,0,0,0,0,0,0,0,0,0,0,0,0,0,0,0,0,0,0,0,0,95,0,0,0,0,0,0,0,0,0,0,0,93,0,0,0,0,0,0,0,0,0,0,98,93,0,93,0,0,0,0,0,0,0,0,
0,0,0,0,0,0,0,0,0,0,95,0,0,0,95,95,0,0,0,0,0,0,0,0,0,0,0,0,0,0,0,0,0,0,0,0,0,0,0,100,0,0,0,0,0,0,0,0,0,0,89,0,0,0,0,0,0,0,0,0,0,0,0,0,0,0,0,0,0,0,0,93,0,0,0,0,
0,0,0,0,93,97,0,0,0,0,0,0,0,0,0,0,0,0,0,0,0,0,0,0,0,0,0,0,0,0,91,0,0,0,0,0,0,100,0,0,95,0,0,0,0,0,0,0,0,0,0,0,0,0,0,89,0,0,0,0,0,0,0,0,93,0,0,0,0,0,0,0,0,0,0,0,
0,0,0,0,0,0,0,0,0,0,0,0,0,0,0,0,0,0,0,0,93,0,0,97,0,0,0,0,0,0,0,0,89,0,0,0,0,0,0,0,95,0,0,0,0,0,0,0,0,0,0,0,0,0,0,90,0,0,0,0,94,0,0,0,0,0,0,0,0,0,0,0,0,0,0,0,
0,0,0,0,0,0,0,0,0,0,0,0,0,0,99,0,0,0,0,0,0,0,0,0,0,0,0,0,0,0,0,0,0,0,0,0,0,0,0,0,0,0,0,0,0,0,0,0,0,0,0,0,0,0,0,0,0,0,0,0,0,0,0,0,0,0,0,0,0,0,0,93,0,0,0,0,
0,0,0,0,0,0,0,0,0,0,0,93,0,0,99,0,0,0,0,0,0,93,0,0,0,0,0,0,0,0,0,0,0,0,0,0,0,100,0,0,0,0,0,0,96,0,0,0,0,0,0,0,0,0,0,0,0,0,0,0,0,0,101,89,0,0,93,0,0,0,0,0,0,0,0,0,
0,0,0,0,0,0,0,0,0,97,93,0,0,0,0,0,0,0,0,0,0,97,0,0,0,0,0,0,0,0,0,0,0,0,0,0,0,0,0,100,0,0,0,0,0,0,0,0,0,0,0,0,0,0,0,0,0,0,0,0,0,0,0,0,0,0,0,0,0,0,93,0,0,0,0,0,
0,0,0,0,0,0,0,0,0,0,0,0,0,0,99,0,0,0,0,0,93,98,0,97,0,0,0,0,0,0,0,0,0,0,0,0,0,0,0,95,0,96,0,95,0,0,0,0,0,0,0,0,0,0,90,0,0,0,0,90,0,0,0,89,0,0,0,0,93,0,0,97,0,0,97,0,
0,0,93,0,0,0,0,0,0,0,0,0,0,0,0,0,0,0,0,97,97,0,0,93,0,0,0,0,0,0,0,0,0,0,0,0,0,0,0,0,0,0,0,0,0,0,0,0,0,0,94,0,0,101,0,98,0,0,0,0,101,0,0,0,0,0,0,0,97,98,0,0,0,0,0,0,
0,0,0,0,0,0,0,0,0,0,97,0,0,0,99,0,0,0,0,0,0,97,0,0,0,0,0,0,0,0,0,0,89,0,0,90,0,0,0,0,92,0,0,0,0,0,0,0,0,0,101,0,0,0,0,0,0,0,0,0,0,0,0,0,0,0,0,93,0,0,0,0,0,0,0,93,
0,0,0,0,0,0,0,0,0,0,0,0,0,0,0,0,0,0,0,0,0,0,0,0,0,0,0,0,0,0,91,0,0,0,0,0,94,0,0,0,0,0,0,0,0,90,0,0,0,0,91,0,0,0,0,0,0,0,0,0,0,0,0,0,0,0,0,0,0,0,0,0,0,0,0,0,
93,0,0,93,0,93,0,0,0,0,93,0,0,0,0,0,0,0,0,0,0,98,0,98,0,0,0,0,0,0,0,0,0,89,0,0,0,0,101,0,0,0,0,0,0,0,0,0,0,0,0,0,0,94,0,0,0,0,0,0,0,90,0,0,97,0,0,0,0,97,0,93,0,0,0,0,
0,0,0,0,93,0,0,0,0,0,93,0,0,0,0,99,0,0,0,0,0,0,0,0,0,0,0,0,0,89,0,0,0,0,0,0,0,0,0,0,0,0,0,0,0,0,0,0,0,0,0,0,0,0,0,0,0,0,89,0,0,0,0,0,0,0,0,0,97,0,0,0,0,0,0,0,
0,0,0,0,93,0,0,0,0,93,0,0,90,89,0,0,0,0,0,0,0,93,0,0,0,0,0,0,0,0,0,0,0,0,0,0,0,0,94,0,0,0,0,0,0,0,0,90,0,0,0,0,0,0,0,0,0,0,0,0,0,0,0,0,0,0,0,0,93,0,0,0,0,0,0,93,
0,0,0,93,0,0,0,93,0,0,0,0,0,0,0,0,0,0,0,0,0,0,0,0,0,0,0,0,0,0,0,0,0,0,0,0,0,0,0,0,0,0,0,0,0,101,0,0,0,0,0,93,0,0,0,0,0,0,0,0,0,0,0,0,0,0,0,0,0,0,0,0,0,0,98,0,
0,0,0,0,0,93,93,93,0,0,0,0,0,0,0,0,0,0,0,0,0,0,0,0,0,0,0,0,0,89,0,0,0,0,0,0,0,0,0,0,0,0,0,0,0,0,0,0,0,0,0,0,0,0,0,0,0,0,0,0,0,0,93,0,0,0,0,0,0,0,0,0,0,93,0,0,
0,0,0,0,93,0,93,0,0,0,0,0,0,0,0,0,0,0,89,0,0,0,97,0,0,0,0,0,0,0,0,0,0,0,0,0,0,0,0,0,0,0,0,0,0,0,0,0,0,0,0,0,0,0,0,0,0,93,0,0,0,0,0,97,97,0,0,0,0,0,0,93,0,0,0,0,
0,0,0,0,0,98,93,0,97,0,0,0,0,0,0,0,0,0,98,0,0,0,0,0,0,0,0,0,0,0,0,0,90,0,0,0,0,0,0,0,0,0,0,0,0,0,0,0,101,0,0,0,0,0,0,0,0,0,0,0,0,0,0,0,0,0,93,0,0,0,0,0,0,98,0,0,
93,0,0,93,97,0,0,93,0,0,0,0,0,0,0,0,0,0,0,0,0,0,0,0,0,0,0,0,0,0,0,0,0,0,0,0,0,0,0,0,0,0,0,0,90,0,0,0,0,0,90,90,0,0,0,0,0,0,0,0,0,0,0,0,98,0,0,0,0,0,0,0,0,0,0,0,
0,0,0,0,0,0,0,0,0,0,0,0,0,0,0,0,0,0,0,0,0,0,0,0,0,0,0,0,0,94,0,0,0,0,0,0,0,94,0,0,0,0,0,0,0,0,0,0,0,0,0,101,0,90,0,0,0,0,0,0,0,0,0,0,97,0,0,0,0,0,0,0,0,0,0,93,
0,0,0,0,0,0,98,0,0,0,0,0,0,0,0,0,0,0,0,0,0,0,0,0,0,0,0,0,0,0,0,0,0,0,0,0,0,0,0,0,0,0,0,0,0,0,0,0,94,0,0,0,0,98,0,0,97,0,0,93,0,0,0,0,0,0,0,0,0,0,97,0,0,0,0,0,
93,97,0,93,0,0,0,0,0,0,0,0,0,0,0,0,0,0,0,0,0,94,0,0,0,0,0,91,0,0,0,0,0,0,0,0,0,0,0,0,0,94,0,0,0,0,0,0,0,0,0,0,0,0,0,0,0,0,0,97,0,0,0,0,0,0,0,0,0,0,0,0,0,0,0,0,
0,93,97,0,93,0,0,0,0,0,0,0,0,0,0,0,0,0,0,0,0,0,94,0,0,0,0,0,0,0,0,0,93,93,0,0,0,0,0,0,0,0,0,0,0,0,0,0,0,0,0,0,0,0,0,0,0,0,0,0,0,0,93,0,0,0,0,0,0,93,0,0,0,0,98,0,
0,93,0,0,0,0,97,0,0,0,0,0,97,0,0,97,0,0,0,0,0,0,0,0,0,0,0,0,0,0,0,0,0,0,0,0,0,0,0,0,0,0,0,0,0,0,0,0,98,0,0,0,0,0,0,0,0,97,0,0,0,0,0,93,0,0,0,0,0,0,0,0,0,97,0,0,
0,0,0,0,0,0,0,0,0,0,0,0,0,0,0,0,0,0,0,0,0,0,0,0,0,0,0,0,0,0,0,0,0,0,0,0,0,0,0,0,0,0,0,0,0,0,0,0,0,0,0,0,0,0,0,0,0,0,0,93,97,0,0,0,0,0,0,0,0,0,0,93,0,0,0,0,
0,0,0,93,0,0,0,0,0,0,0,93,0,0,0,0,0,0,0,0,0,0,0,0,0,0,0,0,0,0,0,0,0,0,0,0,0,0,0,0,0,90,0,0,0,0,0,90,0,0,0,0,0,0,0,0,0,0,0,0,0,93,0,0,0,0,0,0,0,0,0,0,0,0,0,93,
98,0,0,0,0,0,0,0,0,0,0,0,0,0,0,0,0,0,0,94,0,89,0,0,0,0,0,0,0,0,0,0,0,94,0,89,0,0,0,0,0,0,0,0,0,0,0,0,0,101,0,0,0,0,0,0,0,0,0,0,0,97,0,0,97,93,0,0,0,0,0,0,0,0,0,0,
0,0,0,0,97,0,97,0,0,0,0,0,0,97,0,93,0,0,0,101,0,0,0,0,0,0,0,0,0,92,0,0,0,0,89,0,0,0,0,0,0,89,0,94,0,0,0,0,0,0,0,0,0,0,0,0,0,0,0,0,0,0,0,0,0,0,0,0,0,0,0,0,0,98,0,0,
0,0,0,0,0,0,0,0,0,0,0,0,0,0,0,0,0,0,0,0,94,0,0,0,0,0,0,0,0,0,0,0,0,0,0,0,0,0,0,0,0,0,0,0,0,0,0,0,0,0,0,0,0,0,0,0,0,0,0,0,0,0,0,0,0,0,0,0,0,0,0,0,97,0,0,93,
0,0,0,0,0,93,0,0,93,0,0,0,97,0,93,0,0,0,0,0,0,0,0,0,0,0,0,0,0,0,0,0,0,0,0,0,0,0,0,0,89,0,0,0,0,0,0,0,0,0,93,0,0,0,0,93,0,0,0,0,0,0,0,93,0,0,0,0,93,0,0,97,0,0,0,0,
0,0,0,0,0,0,0,93,0,93,0,0,0,0,0,0,0,0,0,0,0,0,0,0,0,0,0,0,0,0,89,0,0,0,0,0,0,0,0,0,0,0,94,0,0,0,0,0,0,0,0,0,0,0,0,0,93,0,0,0,0,0,0,0,0,0,0,0,97,0,93,0,0,0,0,0,
0,0,0,93,0,0,0,0,98,0,0,0,0,0,0,0,0,0,0,0,0,0,0,0,0,0,98,0,0,0,0,0,0,0,0,0,0,0,0,0,0,0,0,0,0,0,0,0,0,0,0,0,0,0,0,0,0,97,0,0,0,0,0,0,0,0,0,0,0,0,0,0,0,0,0,0,
0,0,0,0,0,0,0,0,0,0,0,93,0,0,0,0,0,0,0,0,0,0,0,0,0,0,0,0,0,0,0,0,0,0,90,0,0,0,0,0,0,0,0,0,0,0,0,0,0,0,0,0,0,0,0,0,0,0,0,0,0,0,0,0,0,0,93,0,0,0,0,0,0,0,0,0,
93,0,0,0,0,0,0,0,0,0,0,0,0,0,0,0,0,0,0,0,0,0,0,0,0,0,0,0,94,0,0,0,90,0,0,0,0,0,0,0,0,0,0,0,98,0,0,0,0,0,0,0,0,0,0,97,0,0,0,0,0,0,0,0,0,0,98,0,0,0,0,0,0,0,0,93,
0,0,0,0,0,0,0,0,0,98,0,0,0,0,0,0,0,0,0,0,0,0,0,94,0,0,0,0,0,0,94,0,0,0,0,89,0,0,94,0,0,0,0,0,0,0,0,0,0,0,0,0,0,0,0,0,0,0,0,0,91,0,0,0,0,0,0,0,0,0,0,0,0,97,0,93,
0,0,0,0,0,0,0,0,0,0,0,0,0,0,0,0,0,0,0,0,0,0,0,0,0,0,0,0,0,89,0,0,0,94,0,0,0,0,0,89,0,0,0,0,0,0,0,0,0,0,0,0,90,0,94,0,0,0,94,0,0,0,0,0,0,0,0,0,97,0,0,0,93,0,0,93,
0,0,0,0,97,0,0,0,0,0,0,0,0,0,0,0,0,0,0,0,0,0,0,0,90,0,90,90,89,0,0,0,0,0,0,0,0,0,0,0,0,0,0,0,0,0,0,0,0,0,0,0,89,0,89,0,0,0,0,0,0,0,0,0,0,0,0,0,0,93,0,0,0,0,0,0,
0,0,97,0,0,97,0,93,0,0,0,97,0,0,0,97,0,0,0,0,0,0,0,0,0,0,0,0,0,98,0,0,0,0,0,0,0,0,0,0,0,0,0,0,0,0,0,0,0,0,0,0,0,0,101,0,0,0,0,0,101,0,0,0,0,0,0,0,0,0,0,0,0,98,0,98,
0,0,0,0,0,0,0,0,0,0,0,0,0,0,0,97,0,0,0,0,0,0,0,0,0,0,0,0,0,0,0,0,0,0,97,0,0,0,0,0,0,0,0,0,0,101,0,0,0,0,0,0,0,0,0,0,0,0,0,0,0,0,0,0,0,0,0,0,0,0,0,0,0,0,0,0,
0,0,0,0,93,0,0,0,0,0,0,0,0,0,0,0,0,0,0,0,0,0,0,0,94,0,0,0,0,0,0,0,94,0,98,0,0,0,0,0,0,0,0,0,0,89,0,0,0,0,0,0,0,0,0,0,0,0,0,0,0,0,0,0,0,0,0,0,0,0,0,0,0,0,0,0,
0,0,93,0,0,0,97,0,93,0,0,0,0,0,0,0,0,0,0,0,0,0,0,0,89,0,0,0,0,0,0,0,0,0,0,0,0,0,0,0,0,0,0,0,0,0,0,0,0,0,0,0,0,0,0,0,0,0,0,0,0,0,0,0,0,0,0,0,0,0,0,0,0,0,0,0,
93,0,0,0,93,0,0,0,0,0,0,0,0,0,0,0,0,0,0,0,0,0,0,0,0,0,94,90,0,0,0,0,0,0,0,0,0,97,0,93,98,0,93,98,0,0,0,0,0,0,0,0,0,0,0,0,0,0,0,0,0,0,0,0,0,0,89,0,0,0,0,0,0,93,0,0,
0,0,0,93,0,0,0,0,0,0,0,0,0,0,0,0,0,0,0,0,0,0,0,0,101,0,0,0,0,0,0,0,0,0,93,0,0,93,93,0,0,0,0,0,0,0,0,0,0,0,0,0,0,0,0,0,0,0,0,0,0,0,0,0,0,0,0,0,0,0,0,0,0,0,0,0,
0,0,93,97,93,0,0,0,0,0,0,0,0,0,0,0,0,0,0,98,0,0,0,0,0,90,0,0,0,0,0,0,0,0,0,0,0,0,0,0,0,0,93,0,0,0,0,0,89,0,0,0,0,0,0,0,0,0,0,0,0,0,0,0,0,0,0,0,0,0,0,0,0,0,0,93,
0,0,0,0,0,93,0,0,93,0,0,0,0,93,0,0,0,0,0,0,0,0,0,0,94,0,0,0,0,0,0,0,0,0,0,0,0,0,0,0,0,0,0,0,97,0,0,0,0,0,0,0,0,0,0,0,0,0,0,0,0,0,0,0,0,0,0,94,0,0,0,0,0,0,97,93,
0,0,0,0,0,0,93,0,97,0,97,97,0,0,0,0,0,0,0,0,0,0,101,0,101,0,0,0,0,0,0,0,0,0,0,0,0,0,0,93,0,0,0,0,0,0,91,0,0,0,0,0,0,0,0,0,0,0,0,0,0,0,0,0,0,0,0,0,0,0,0,97,98,0,0,0,
0,0,0,98,0,0,0,0,0,0,93,0,93,0,0,0,0,0,0,0,0,0,0,0,0,0,0,0,0,0,0,0,0,0,0,0,0,93,0,0,0,0,0,0,0,0,0,0,0,0,0,0,0,0,0,0,0,0,0,0,0,0,0,0,0,0,0,0,0,0,0,0,0,0,0,0,
93,0,0,0,0,93,97,93,0,97,0,93,93,0,0,0,0,0,0,93,0,0,0,0,0,0,0,0,0,0,0,0,0,0,0,0,97,93,0,0,0,0,93,0,0,0,0,0,0,0,0,0,0,0,0,0,0,0,0,0,0,0,0,0,0,0,0,0,0,0,0,0,0,0,0,0,
0,0,0,0,0,0,0,0,0,0,0,0,0,0,0,0,0,0,0,0,0,0,98,0,0,0,0,0,0,0,0,0,0,0,93,0,0,0,0,0,0,0,0,0,0,0,0,0,0,0,0,0,0,0,0,0,0,0,0,0,0,0,0,0,0,0,0,0,0,0,0,0,0,0,0,0,
0,0,0,0,0,0,0,0,0,0,93,0,0,0,0,0,0,0,0,93,0,0,0,0,0,0,0,0,0,0,0,0,0,0,0,0,0,93,0,0,0,0,93,0,0,0,0,0,0,0,0,0,0,0,0,0,0,0,0,0,0,0,0,0,0,89,0,0,0,0,93,0,0,0,0,0,
0,0,93,0,93,97,0,0,93,0,0,0,0,0,0,0,0,0,0,0,0,0,0,0,0,0,0,0,0,0,0,98,0,0,93,0,0,0,97,93,0,0,0,0,93,0,0,0,0,94,0,0,0,0,0,0,0,0,0,0,0,0,0,0,98,0,0,0,0,0,0,0,0,0,0,0,
0,0,0,0,93,0,93,93,0,0,0,0,0,0,0,0,0,0,0,0,0,0,93,0,0,0,0,0,0,0,0,0,0,0,0,0,0,0,98,0,0,0,0,0,0,0,0,0,0,0,0,0,0,0,89,0,0,0,0,0,0,0,0,0,0,0,0,0,0,0,0,0,0,0,0,0,
0,0,0,0,0,0,0,0,0,0,0,97,0,0,0,0,0,0,0,98,93,93,0,0,0,0,0,0,0,0,0,97,0,0,0,0,93,0,0,0,0,0,0,0,0,98,0,0,0,0,0,0,0,0,0,0,0,0,0,0,0,0,0,0,0,0,0,0,0,0,0,0,0,0,0,0,
0,0,0,0,0,0,0,0,0,0,0,0,0,0,0,0,0,0,0,0,0,0,0,0,93,0,0,0,0,0,93,0,0,0,0,0,0,0,0,0,0,0,0,0,0,0,0,98,0,0,0,0,0,0,0,0,0,0,0,0,89,0,0,0,0,0,0,89,0,0,0,0,0,0,0,0,
0,98,0,0,0,0,0,0,0,0,0,0,0,0,0,0,0,0,0,93,0,93,0,0,0,0,0,93,0,0,0,93,0,0,0,0,0,0,0,0,0,0,0,0,0,0,93,0,0,0,0,0,0,98,0,0,0,91,90,0,0,0,0,0,0,0,0,0,0,0,0,93,0,0,0,0,
0,0,0,0,0,0,0,0,0,0,0,0,0,0,0,0,0,0,0,0,0,97,0,0,0,0,0,0,0,93,0,0,0,0,0,0,0,0,0,0,0,0,0,93,0,0,0,0,0,0,0,0,0,0,0,0,0,0,0,0,0,0,0,0,0,0,0,0,0,0,0,0,0,0,93,0,
0,0,0,93,0,0,0,0,0,0,0,0,0,0,0,0,0,0,0,0,0,0,0,0,0,97,0,0,0,0,93,0,0,93,0,0,0,0,0,0,0,0,93,0,97,0,0,0,0,0,0,0,0,0,0,0,0,0,0,97,0,93,0,0,0,0,0,93,0,0,0,93,0,97,93,0,
0,0,0,93,0,0,93,0,97,0,0,0,0,0,0,0,0,0,0,93,0,0,0,0,0,0,0,0,0,98,0,93,93,0,0,0,0,93,0,0,0,0,0,0,0,0,0,0,98,0,0,0,0,0,0,0,93,0,93,0,0,0,0,0,0,98,0,0,0,0,0,0,0,0,0,0,
0,0,0,0,0,0,0,0,93,93,0,0,0,0,0,0,0,0,0,0,0,0,0,0,0,0,0,0,0,0,93,93,0,93,0,0,0,0,0,0,0,0,0,0,0,0,0,0,0,0,93,93,0,0,0,0,0,0,0,0,0,0,97,0,0,98,0,0,0,0,0,0,0,0,0,0,
0,0,0,0,93,0,0,0,0,0,0,0,0,0,0,0,0,0,0,0,0,0,0,0,0,98,0,0,0,0,0,93,0,0,0,0,93,0,0,0,0,0,0,0,0,0,0,0,97,0,0,0,0,93,0,0,0,0,93,0,0,0,0,0,0,0,0,0,0,0,0,0,0,0,0,93
</data>
 </layer>
 <objectgroup id="3" name="props">
  <object id="1" gid="102" x="114.52" y="70.43" width="220" height="270"/>
  <object id="2" gid="109" x="79.91" y="220.93" width="173" height="345"/>
  <object id="3" gid="103" x="291.84" y="89.89" width="246" height="302"/>
  <object id="4" gid="109" x="187.55" y="201.23" width="173" height="345"/>
  <object id="5" gid="105" x="63.53" y="356.19" width="220" height="270"/>
  <object id="6" gid="106" x="162.45" y="300.02" width="220" height="270"/>
  <object id="7" gid="109" x="429.09" y="74.41" width="173" height="345"/>
  <object id="8" gid="103" x="378.24" y="172.48" width="246" height="302"/>
  <object id="9" gid="109" x="262.02" y="308.04" width="173" height="345"/>
  <object id="10" gid="106" x="155.88" y="437.51" width="220" height="270"/>
  <object id="11" gid="105" x="66.18" y="529.67" width="220" height="270"/>
  <object id="12" gid="107" x="485.06" y="186.67" width="209" height="257"/>
  <object id="13" gid="103" x="404.34" y="275.04" width="246" height="302"/>
  <object id="14" gid="103" x="573.72" y="130.63" width="246" height="302"/>
  <object id="15" gid="104" x="303.05" y="403.64" width="198" height="243"/>
  <object id="16" gid="109" x="111.08" y="629.44" width="173" height="345"/>
  <object id="17" gid="104" x="691.49" y="100.62" width="198" height="243"/>
  <object id="18" gid="109" x="247.23" y="568.89" width="173" height="345"/>
  <object id="19" gid="102" x="439.72" y="401.78" width="220" height="270"/>
  <object id="20" gid="102" x="528.15" y="314.82" width="220" height="270"/>
  <object id="21" gid="103" x="94.8" y="755.58" width="246" height="302"/>
  <object id="22" gid="106" x="632.07" y="256.47" width="220" height="270"/>
  <object id="23" gid="108" x="802.83" y="90.05" width="150" height="300"/>
  <object id="24" gid="102" x="400.45" y="523.16" width="220" height="270"/>
  <object id="25" gid="104" x="736.54" y="222.36" width="198" height="243"/>
  <object id="26" gid="114" x="478.72" y="482.42" width="110" height="80"/>
  <object id="27" gid="104" x="211.08" y="750.37" width="198" height="243"/>
  <object id="28" gid="108" x="340.25" y="655.31" width="150" height="300"/>
  <object id="29" gid="108" x="126.49" y="869.96" width="150" height="300"/>
  <object id="30" gid="123" x="586.41" y="437.29" width="163" height="137"/>
  <object id="31" gid="102" x="656.79" y="373" width="220" height="270"/>
  <object id="32" gid="123" x="437.24" y="624.34" width="163" height="137"/>
  <object id="33" gid="102" x="869.46" y="194.2" width="220" height="270"/>
  <object id="34" gid="108" x="70.23" y="1029.08" width="150" height="300"/>
  <object id="35" gid="102" x="965.82" y="140.28" width="220" height="270"/>
  <object id="36" gid="104" x="279.69" y="829.33" width="198" height="243"/>
  <object id="37" gid="117" x="379.36" y="738.2" width="120" height="140"/>
  <object id="38" gid="122" x="799.57" y="331.08" width="141" height="119"/>
  <object id="39" gid="115" x="888.06" y="280.89" width="110" height="80"/>
  <object id="40" gid="102" x="1087.29" y="87.41" width="220" height="270"/>
  <object id="41" gid="104" x="59.6" y="1150.48" width="198" height="243"/>
  <object id="42" gid="122" x="381.6" y="855.2" width="141" height="119"/>
  <object id="43" gid="103" x="1189.63" y="75.28" width="246" height="302"/>
  <object id="44" gid="104" x="229.82" y="1045.82" width="198" height="243"/>
  <object id="45" gid="102" x="345.69" y="944.74" width="220" height="270"/>
  <object id="46" gid="157" x="708.8" y="606.4" width="300" height="274"/>
  <object id="47" gid="105" x="163.34" y="1155.1" width="220" height="270"/>
  <object id="48" gid="109" x="1112.62" y="218.76" width="173" height="345"/>
  <object id="49" gid="156" x="538.8" y="807.6" width="80" height="90"/>
  <object id="50" gid="122" x="1038.83" y="331.08" width="141" height="119"/>
  <object id="51" gid="102" x="1217.16" y="177.73" width="220" height="270"/>
  <object id="52" gid="156" x="858.8" y="538.8" width="80" height="90"/>
  <object id="53" gid="102" x="330.24" y="1077.89" width="220" height="270"/>
  <object id="54" gid="108" x="127.07" y="1289.17" width="150" height="300"/>
  <object id="55" gid="114" x="453.85" y="965.69" width="110" height="80"/>
  <object id="56" gid="108" x="57.93" y="1385.69" width="150" height="300"/>
  <object id="57" gid="109" x="282.56" y="1202.29" width="173" height="345"/>
  <object id="58" gid="105" x="1377.89" y="108.29" width="220" height="270"/>
  <object id="59" gid="103" x="1177.46" y="330.3" width="246" height="302"/>
  <object id="60" gid="121" x="430.64" y="1084.26" width="103" height="88"/>
  <object id="61" gid="109" x="1300.06" y="247.69" width="173" height="345"/>
  <object id="62" gid="109" x="254.8" y="1322.27" width="173" height="345"/>
  <object id="63" gid="108" x="1484.54" y="101.21" width="150" height="300"/>
  <object id="64" gid="103" x="120.01" y="1477.27" width="246" height="302"/>
  <object id="65" gid="104" x="202.61" y="1414.54" width="198" height="243"/>
  <object id="66" gid="105" x="375.9" y="1271.24" width="220" height="270"/>
  <object id="67" gid="110" x="502.4" y="1155.2" width="200" height="250"/>
  <object id="68" gid="118" x="438.22" y="1220.53" width="120" height="140"/>
  <object id="69" gid="105" x="56.54" y="1611.44" width="220" height="270"/>
  <object id="70" gid="109" x="1445.64" y="235.44" width="173" height="345"/>
  <object id="71" gid="108" x="1325.59" y="356.45" width="150" height="300"/>
  <object id="72" gid="123" x="1256.79" y="437.29" width="163" height="137"/>
  <object id="73" gid="108" x="1638.41" y="108.83" width="150" height="300"/>
  <object id="74" gid="102" x="293.12" y="1479.05" width="220" height="270"/>
  <object id="75" gid="102" x="1547.23" y="238.33" width="220" height="270"/>
  <object id="76" gid="103" x="1729.47" y="61.29" width="246" height="302"/>
  <object id="77" gid="103" x="490.76" y="1315.87" width="246" height="302"/>
  <object id="78" gid="104" x="248.34" y="1570.78" width="198" height="243"/>
  <object id="79" gid="153" x="1127.6" y="692.4" width="100" height="60"/>
  <object id="80" gid="102" x="1440.01" y="387.62" width="220" height="270"/>
  <object id="81" gid="153" x="743.6" y="1114.8" width="100" height="60"/>
  <object id="82" gid="122" x="584.01" y="1275.51" width="141" height="119"/>
  <object id="83" gid="105" x="405.92" y="1458.11" width="220" height="270"/>
  <object id="84" gid="108" x="219.46" y="1666.76" width="150" height="300"/>
  <object id="85" gid="108" x="108.9" y="1805.93" width="150" height="300"/>
  <object id="86" gid="111" x="1336.4" y="581.2" width="220" height="270"/>
  <object id="87" gid="103" x="1419.01" y="499.46" width="246" height="302"/>
  <object id="88" gid="103" x="1658.69" y="269.39" width="246" height="302"/>
  <object id="89" gid="119" x="1832.22" y="98.28" width="80" height="60"/>
  <object id="90" gid="108" x="1743.04" y="192.69" width="150" height="300"/>
  <object id="91" gid="105" x="349.11" y="1594.65" width="220" height="270"/>
  <object id="92" gid="102" x="1579" y="368.53" width="220" height="270"/>
  <object id="93" gid="108" x="571.56" y="1377.62" width="150" height="300"/>
  <object id="94" gid="108" x="1521.19" y="471.29" width="150" height="300"/>
  <object id="95" gid="117" x="716.61" y="1303.27" width="120" height="140"/>
  <object id="96" gid="102" x="478.22" y="1542.29" width="220" height="270"/>
  <object id="97" gid="104" x="73.78" y="1948.34" width="198" height="243"/>
  <object id="98" gid="122" x="1403.56" y="621.94" width="141" height="119"/>
  <object id="99" gid="109" x="268.2" y="1785.92" width="173" height="345"/>
  <object id="100" gid="108" x="382.15" y="1709.97" width="150" height="300"/>
  <object id="101" gid="102" x="1504.65" y="588.06" width="220" height="270"/>
  <object id="102" gid="108" x="689.52" y="1404.89" width="150" height="300"/>
  <object id="103" gid="119" x="1759.48" y="335.06" width="80" height="60"/>
  <object id="104" gid="102" x="186.42" y="1920.04" width="220" height="270"/>
  <object id="105" gid="102" x="1639.49" y="468.06" width="220" height="270"/>
  <object id="106" gid="102" x="597.27" y="1536.2" width="220" height="270"/>
  <object id="107" gid="104" x="517.56" y="1633.88" width="198" height="243"/>
  <object id="108" gid="102" x="1465.74" y="687.63" width="220" height="270"/>
  <object id="109" gid="104" x="59.08" y="2095.12" width="198" height="243"/>
  <object id="110" gid="108" x="145.05" y="2028.66" width="150" height="300"/>
  <object id="111" gid="117" x="1711.21" y="470.3" width="120" height="140"/>
  <object id="112" gid="108" x="344.37" y="1852.18" width="150" height="300"/>
  <object id="113" gid="108" x="694.91" y="1507.04" width="150" height="300"/>
  <object id="114" gid="104" x="1663.18" y="569.32" width="198" height="243"/>
  <object id="115" gid="105" x="1590.66" y="644.28" width="220" height="270"/>
  <object id="116" gid="107" x="483" y="1774.05" width="209" height="257"/>
  <object id="117" gid="102" x="260.78" y="2020.08" width="220" height="270"/>
  <object id="118" gid="112" x="2087.03" y="200.69" width="80" height="70"/>
  <object id="119" gid="109" x="665.56" y="1622.92" width="173" height="345"/>
  <object id="120" gid="104" x="113.5" y="2188.4" width="198" height="243"/>
  <object id="121" gid="123" x="1459.2" y="857.6" width="163" height="137"/>
  <object id="122" gid="108" x="2200.06" y="129.84" width="150" height="300"/>
  <object id="123" gid="102" x="408.87" y="1934.66" width="220" height="270"/>
  <object id="124" gid="115" x="1661.56" y="701.26" width="110" height="80"/>
  <object id="125" gid="112" x="1386.99" y="976" width="80" height="70"/>
  <object id="126" gid="102" x="1605.97" y="757.2" width="220" height="270"/>
  <object id="127" gid="108" x="80.84" y="2303.81" width="150" height="300"/>
  <object id="128" gid="116" x="1124.06" y="1280.38" width="110" height="80"/>
  <object id="129" gid="108" x="2301.89" y="102.99" width="150" height="300"/>
  <object id="130" gid="103" x="238.83" y="2167.85" width="246" height="302"/>
  <object id="131" gid="105" x="2168.12" y="242.77" width="220" height="270"/>
  <object id="132" gid="120" x="816.75" y="1599.88" width="70" height="61"/>
  <object id="133" gid="102" x="530.6" y="1898.45" width="220" height="270"/>
  <object id="134" gid="109" x="1476.84" y="959.56" width="173" height="345"/>
  <object id="135" gid="102" x="705.61" y="1732.43" width="220" height="270"/>
  <object id="136" gid="105" x="634.7" y="1811.89" width="220" height="270"/>
  <object id="137" gid="116" x="2062.47" y="399.83" width="110" height="80"/>
  <object id="138" gid="102" x="2139.88" y="345.18" width="220" height="270"/>
  <object id="139" gid="104" x="195.44" y="2292.41" width="198" height="243"/>
  <object id="140" gid="110" x="1283.2" y="1206.4" width="200" height="250"/>
  <object id="141" gid="122" x="1403.56" y="1088.46" width="141" height="119"/>
  <object id="142" gid="108" x="411.51" y="2080.96" width="150" height="300"/>
  <object id="143" gid="104" x="341.69" y="2153.91" width="198" height="243"/>
  <object id="144" gid="104" x="2290.75" y="239.12" width="198" height="243"/>
  <object id="145" gid="123" x="1256.79" y="1277.91" width="163" height="137"/>
  <object id="146" gid="116" x="1998.81" y="546.07" width="110" height="80"/>
  <object id="147" gid="109" x="150.07" y="2397.15" width="173" height="345"/>
  <object id="148" gid="108" x="1361.63" y="1186.72" width="150" height="300"/>
  <object id="149" gid="109" x="59.3" y="2494.19" width="173" height="345"/>
  <object id="150" gid="115" x="1610.97" y="954.67" width="110" height="80"/>
  <object id="151" gid="109" x="1518.6" y="1059.78" width="173" height="345"/>
  <object id="152" gid="109" x="2089.11" y="493.1" width="173" height="345"/>
  <object id="153" gid="108" x="2483.94" y="102.59" width="150" height="300"/>
  <object id="154" gid="114" x="718.85" y="1869.58" width="110" height="80"/>
  <object id="155" gid="104" x="582.89" y="2006.97" width="198" height="243"/>
  <object id="156" gid="105" x="1174.82" y="1417.01" width="220" height="270"/>
  <object id="157" gid="108" x="1106.3" y="1488.98" width="150" height="300"/>
  <object id="158" gid="102" x="2240.08" y="372.33" width="220" height="270"/>
  <object id="159" gid="102" x="1475.25" y="1164.39" width="220" height="270"/>
  <object id="160" gid="108" x="528.44" y="2117.48" width="150" height="300"/>
  <object id="161" gid="108" x="2433.6" y="213.53" width="150" height="300"/>
  <object id="162" gid="108" x="337.01" y="2310.97" width="150" height="300"/>
  <object id="163" gid="105" x="1321.34" y="1345.85" width="220" height="270"/>
  <object id="164" gid="108" x="2199.79" y="468.85" width="150" height="300"/>
  <object id="165" gid="102" x="2069.36" y="614.46" width="220" height="270"/>
  <object id="166" gid="115" x="1978.04" y="711.82" width="110" height="80"/>
  <object id="167" gid="104" x="251.09" y="2443.36" width="198" height="243"/>
  <object id="168" gid="106" x="179.73" y="2515.72" width="220" height="270"/>
  <object id="169" gid="115" x="1049.73" y="1647.68" width="110" height="80"/>
  <object id="170" gid="108" x="1442.44" y="1262.29" width="150" height="300"/>
  <object id="171" gid="109" x="484.55" y="2238.28" width="173" height="345"/>
  <object id="172" gid="114" x="1884.66" y="844.13" width="110" height="80"/>
  <object id="173" gid="107" x="638.56" y="2092.21" width="209" height="257"/>
  <object id="174" gid="108" x="2576.11" y="155.48" width="150" height="300"/>
  <object id="175" gid="106" x="1146.14" y="1587.2" width="220" height="270"/>
  <object id="176" gid="120" x="1565.81" y="1169.25" width="70" height="61"/>
  <object id="177" gid="104" x="133.67" y="2620.67" width="198" height="243"/>
  <object id="178" gid="108" x="2437.97" y="330.79" width="150" height="300"/>
  <object id="179" gid="109" x="2339.02" y="432.93" width="173" height="345"/>
  <object id="180" gid="105" x="2737.73" y="61.66" width="220" height="270"/>
  <object id="181" gid="103" x="2175.17" y="630.99" width="246" height="302"/>
  <object id="182" gid="102" x="1282.55" y="1526.16" width="220" height="270"/>
  <object id="183" gid="106" x="827.04" y="1988.78" width="220" height="270"/>
  <object id="184" gid="104" x="2064.22" y="752.9" width="198" height="243"/>
  <object id="185" gid="108" x="2546.97" y="272.59" width="150" height="300"/>
  <object id="186" gid="103" x="589.07" y="2232.88" width="246" height="302"/>
  <object id="187" gid="104" x="389.23" y="2433.12" width="198" height="243"/>
  <object id="188" gid="108" x="1445.19" y="1379.4" width="150" height="300"/>
  <object id="189" gid="103" x="488.28" y="2348.07" width="246" height="302"/>
  <object id="190" gid="114" x="712.55" y="2129.91" width="110" height="80"/>
  <object id="191" gid="105" x="2307.17" y="539.73" width="220" height="270"/>
  <object id="192" gid="103" x="113.69" y="2739.11" width="246" height="302"/>
  <object id="193" gid="102" x="1532.05" y="1326.46" width="220" height="270"/>
  <object id="194" gid="104" x="2681.46" y="177.4" width="198" height="243"/>
  <object id="195" gid="107" x="343.29" y="2553.05" width="209" height="257"/>
  <object id="196" gid="103" x="63.38" y="2834.19" width="246" height="302"/>
  <object id="197" gid="116" x="2203.39" y="703.97" width="110" height="80"/>
  <object id="198" gid="117" x="2099.75" y="811.76" width="120" height="140"/>
  <object id="199" gid="104" x="1414.98" y="1522.95" width="198" height="243"/>
  <object id="200" gid="102" x="2789.15" y="152.71" width="220" height="270"/>
  <object id="201" gid="104" x="2870.16" y="84.8" width="198" height="243"/>
  <object id="202" gid="104" x="307.27" y="2648.32" width="198" height="243"/>
  <object id="203" gid="102" x="1273.15" y="1682.7" width="220" height="270"/>
  <object id="204" gid="102" x="2304.82" y="655.65" width="220" height="270"/>
  <object id="205" gid="104" x="2418.76" y="543.82" width="198" height="243"/>
  <object id="206" gid="102" x="576.76" y="2394.24" width="220" height="270"/>
  <object id="207" gid="106" x="2537.1" y="435.42" width="220" height="270"/>
  <object id="208" gid="108" x="498.39" y="2491.49" width="150" height="300"/>
  <object id="209" gid="116" x="1589.4" y="1401.09" width="110" height="80"/>
  <object id="210" gid="104" x="1979.6" y="1017.42" width="198" height="243"/>
  <object id="211" gid="105" x="667.39" y="2329.66" width="220" height="270"/>
  <object id="212" gid="107" x="2628.92" y="372.28" width="209" height="257"/>
  <object id="213" gid="102" x="223.41" y="2781.62" width="220" height="270"/>
  <object id="214" gid="104" x="2766.73" y="255.85" width="198" height="243"/>
  <object id="215" gid="119" x="1229.16" y="1805.45" width="80" height="60"/>
  <object id="216" gid="105" x="1552.9" y="1493.25" width="220" height="270"/>
  <object id="217" gid="109" x="168.52" y="2890.65" width="173" height="345"/>
  <object id="218" gid="108" x="93.63" y="2986.98" width="150" height="300"/>
  <object id="219" gid="103" x="496.65" y="2597.8" width="246" height="302"/>
  <object id="220" gid="119" x="1831.5" y="1263.86" width="80" height="60"/>
  <object id="221" gid="105" x="600.05" y="2496" width="220" height="270"/>
  <object id="222" gid="105" x="1459.11" y="1637.49" width="220" height="270"/>
  <object id="223" gid="105" x="2287.72" y="808.94" width="220" height="270"/>
  <object id="224" gid="116" x="2386.01" y="711.34" width="110" height="80"/>
  <object id="225" gid="102" x="408.56" y="2690" width="220" height="270"/>
  <object id="226" gid="108" x="2729.08" y="377.79" width="150" height="300"/>
  <object id="227" gid="102" x="2540.21" y="575.52" width="220" height="270"/>
  <object id="228" gid="108" x="1374.62" y="1768.63" width="150" height="300"/>
  <object id="229" gid="104" x="1550.73" y="1594.01" width="198" height="243"/>
  <object id="230" gid="104" x="3008.93" y="143.16" width="198" height="243"/>
  <object id="231" gid="109" x="2906.98" y="258.34" width="173" height="345"/>
  <object id="232" gid="102" x="2667.43" y="502.07" width="220" height="270"/>
  <object id="233" gid="115" x="772.74" y="2406" width="110" height="80"/>
  <object id="234" gid="108" x="347.97" y="2843.1" width="150" height="300"/>
  <object id="235" gid="102" x="87.56" y="3107.63" width="220" height="270"/>
  <object id="236" gid="102" x="253.23" y="2953.03" width="220" height="270"/>
  <object id="237" gid="108" x="708.93" y="2499.69" width="150" height="300"/>
  <object id="238" gid="106" x="598.35" y="2646.73" width="220" height="270"/>
  <object id="239" gid="106" x="1544.17" y="1712.8" width="220" height="270"/>
  <object id="240" gid="120" x="2616.48" y="648.43" width="70" height="61"/>
  <object id="241" gid="108" x="1367.67" y="1901.07" width="150" height="300"/>
  <object id="242" gid="104" x="2900.89" y="375.39" width="198" height="243"/>
  <object id="243" gid="103" x="515.33" y="2761.95" width="246" height="302"/>
  <object id="244" gid="102" x="3154.29" y="126.5" width="220" height="270"/>
  <object id="245" gid="116" x="927.83" y="2370.11" width="110" height="80"/>
  <object id="246" gid="106" x="264.58" y="3058.81" width="220" height="270"/>
  <object id="247" gid="149" x="2508" y="818.4" width="90" height="180"/>
  <object id="248" gid="114" x="1643.43" y="1683.95" width="110" height="80"/>
  <object id="249" gid="103" x="445.23" y="2884.09" width="246" height="302"/>
  <object id="250" gid="104" x="1479.21" y="1855.16" width="198" height="243"/>
  <object id="251" gid="108" x="2834.13" y="500.98" width="150" height="300"/>
  <object id="252" gid="155" x="2103.6" y="1233.2" width="120" height="150"/>
  <object id="253" gid="109" x="369.59" y="2978.42" width="173" height="345"/>
  <object id="254" gid="102" x="3050.14" y="305.72" width="220" height="270"/>
  <object id="255" gid="115" x="2772.21" y="587.18" width="110" height="80"/>
  <object id="256" gid="108" x="3268.6" y="94.43" width="150" height="300"/>
  <object id="257" gid="108" x="721.52" y="2642.08" width="150" height="300"/>
  <object id="258" gid="104" x="805.45" y="2560.19" width="198" height="243"/>
  <object id="259" gid="105" x="127.55" y="3247.23" width="220" height="270"/>
  <object id="260" gid="114" x="1413.6" y="1963.89" width="110" height="80"/>
  <object id="261" gid="105" x="212.73" y="3169.39" width="220" height="270"/>
  <object id="262" gid="102" x="1594.48" y="1808.64" width="220" height="270"/>
  <object id="263" gid="109" x="3184.06" y="230.79" width="173" height="345"/>
  <object id="264" gid="102" x="610.43" y="2806.72" width="220" height="270"/>
  <object id="265" gid="115" x="1907.17" y="1512.6" width="110" height="80"/>
  <object id="266" gid="146" x="2393.6" y="1049.6" width="240" height="262"/>
  <object id="267" gid="102" x="945.37" y="2516.53" width="220" height="270"/>
  <object id="268" gid="103" x="717.17" y="2744.89" width="246" height="302"/>
  <object id="269" gid="109" x="3407.95" y="66.71" width="173" height="345"/>
  <object id="270" gid="114" x="1373.95" y="2103.62" width="110" height="80"/>
  <object id="271" gid="115" x="1605.35" y="1877.68" width="110" height="80"/>
  <object id="272" gid="105" x="330.21" y="3156.14" width="220" height="270"/>
  <object id="273" gid="106" x="1528.81" y="1958.73" width="220" height="270"/>
  <object id="274" gid="105" x="3059.2" y="430.72" width="220" height="270"/>
  <object id="275" gid="103" x="3136.62" y="361.89" width="246" height="302"/>
  <object id="276" gid="109" x="2974.7" y="524.9" width="173" height="345"/>
  <object id="277" gid="108" x="138.12" y="3361.71" width="150" height="300"/>
  <object id="278" gid="103" x="2790.61" y="712.98" width="246" height="302"/>
  <object id="279" gid="108" x="410.43" y="3096.94" width="150" height="300"/>
  <object id="280" gid="104" x="842.59" y="2667.05" width="198" height="243"/>
  <object id="281" gid="105" x="598" y="2915.79" width="220" height="270"/>
  <object id="282" gid="109" x="247.41" y="3292.85" width="173" height="345"/>
  <object id="283" gid="109" x="3318.14" y="228.45" width="173" height="345"/>
  <object id="284" gid="102" x="558.85" y="3016.97" width="220" height="270"/>
  <object id="285" gid="108" x="1510.99" y="2073.9" width="150" height="300"/>
  <object id="286" gid="102" x="714.7" y="2879.36" width="220" height="270"/>
  <object id="287" gid="115" x="3016.1" y="588.1" width="110" height="80"/>
  <object id="288" gid="109" x="3424.69" y="183.81" width="173" height="345"/>
  <object id="289" gid="102" x="841.91" y="2769.23" width="220" height="270"/>
  <object id="290" gid="109" x="3252.11" y="361.57" width="173" height="345"/>
  <object id="291" gid="120" x="1587.43" y="2026.74" width="70" height="61"/>
  <object id="292" gid="114" x="1099.59" y="2524.07" width="110" height="80"/>
  <object id="293" gid="104" x="3519.04" y="112.14" width="198" height="243"/>
  <object id="294" gid="104" x="1036.88" y="2600.13" width="198" height="243"/>
  <object id="295" gid="108" x="520.5" y="3117.76" width="150" height="300"/>
  <object id="296" gid="109" x="387.2" y="3255.78" width="173" height="345"/>
  <object id="297" gid="107" x="2065.64" y="1583.72" width="209" height="257"/>
  <object id="298" gid="108" x="655.01" y="2999.69" width="150" height="300"/>
  <object id="299" gid="107" x="147.22" y="3524.32" width="209" height="257"/>
  <object id="300" gid="108" x="58.33" y="3626.63" width="150" height="300"/>
  <object id="301" gid="108" x="317.08" y="3373.78" width="150" height="300"/>
  <object id="302" gid="114" x="1539.65" y="2158.99" width="110" height="80"/>
  <object id="303" gid="153" x="2420.4" y="1281.2" width="100" height="60"/>
  <object id="304" gid="106" x="1480.39" y="2224" width="220" height="270"/>
  <object id="305" gid="103" x="826.25" y="2889.41" width="246" height="302"/>
  <object id="306" gid="104" x="3421.04" y="295.68" width="198" height="243"/>
  <object id="307" gid="104" x="3179.2" y="538.06" width="198" height="243"/>
  <object id="308" gid="102" x="3640.33" y="83.21" width="220" height="270"/>
  <object id="309" gid="114" x="1358.67" y="2365.67" width="110" height="80"/>
  <object id="310" gid="105" x="3104.44" y="625.44" width="220" height="270"/>
  <object id="311" gid="108" x="3527.05" y="211.79" width="150" height="300"/>
  <object id="312" gid="106" x="1426.24" y="2317.53" width="220" height="270"/>
  <object id="313" gid="108" x="924.36" y="2833.01" width="150" height="300"/>
  <object id="314" gid="147" x="2291.2" y="1472" width="240" height="262"/>
  <object id="315" gid="103" x="3333.13" y="457.7" width="246" height="302"/>
  <object id="316" gid="108" x="693.64" y="3106.67" width="150" height="300"/>
  <object id="317" gid="104" x="606.6" y="3194.27" width="198" height="243"/>
  <object id="318" gid="103" x="480.58" y="3321.92" width="246" height="302"/>
  <object id="319" gid="114" x="1132.11" y="2675.45" width="110" height="80"/>
  <object id="320" gid="105" x="1024.46" y="2790.44" width="220" height="270"/>
  <object id="321" gid="103" x="3629.27" y="195.74" width="246" height="302"/>
  <object id="322" gid="114" x="1528.06" y="2303.37" width="110" height="80"/>
  <object id="323" gid="103" x="338.97" y="3497.78" width="246" height="302"/>
  <object id="324" gid="103" x="228.02" y="3624.18" width="246" height="302"/>
  <object id="325" gid="102" x="3255.95" y="603.12" width="220" height="270"/>
  <object id="326" gid="151" x="2126.4" y="1742.4" width="160" height="120"/>
  <object id="327" gid="148" x="2646" y="1238" width="110" height="70"/>
  <object id="328" gid="104" x="3547.52" y="337.5" width="198" height="243"/>
  <object id="329" gid="108" x="125.66" y="3760.52" width="150" height="300"/>
  <object id="330" gid="105" x="585.19" y="3304.33" width="220" height="270"/>
  <object id="331" gid="109" x="965.57" y="2928.03" width="173" height="345"/>
  <object id="332" gid="114" x="3192.14" y="713.67" width="110" height="80"/>
  <object id="333" gid="105" x="828.32" y="3078.46" width="220" height="270"/>
  <object id="334" gid="104" x="480.67" y="3432.06" width="198" height="243"/>
  <object id="335" gid="109" x="2016.98" y="1898.66" width="173" height="345"/>
  <object id="336" gid="108" x="3436.77" y="480.57" width="150" height="300"/>
  <object id="337" gid="154" x="2797.6" y="1133.6" width="110" height="100"/>
  <object id="338" gid="103" x="1504.8" y="2432.12" width="246" height="302"/>
  <object id="339" gid="151" x="2200" y="1742.4" width="160" height="120"/>
  <object id="340" gid="108" x="3796.31" y="163.14" width="150" height="300"/>
  <object id="341" gid="104" x="3870.92" y="89.44" width="198" height="243"/>
  <object id="342" gid="104" x="3357.76" y="605.68" width="198" height="243"/>
  <object id="343" gid="105" x="326.97" y="3642.69" width="220" height="270"/>
  <object id="344" gid="107" x="104.38" y="3874.83" width="209" height="257"/>
  <object id="345" gid="105" x="791.95" y="3188.45" width="220" height="270"/>
  <object id="346" gid="109" x="721.94" y="3262.6" width="173" height="345"/>
  <object id="347" gid="107" x="1101.77" y="2886.9" width="209" height="257"/>
  <object id="348" gid="108" x="3284.8" y="705.47" width="150" height="300"/>
  <object id="349" gid="147" x="2982.4" y="1011.2" width="240" height="262"/>
  <object id="350" gid="104" x="943.34" y="3058.53" width="198" height="243"/>
  <object id="351" gid="108" x="3571.92" y="433.63" width="150" height="300"/>
  <object id="352" gid="151" x="2273.6" y="1742.4" width="160" height="120"/>
  <object id="353" gid="115" x="1191.02" y="2833.95" width="110" height="80"/>
  <object id="354" gid="109" x="258.02" y="3779.6" width="173" height="345"/>
  <object id="355" gid="103" x="1059.47" y="2984.23" width="246" height="302"/>
  <object id="356" gid="105" x="674.76" y="3379.02" width="220" height="270"/>
  <object id="357" gid="104" x="477.41" y="3584.74" width="198" height="243"/>
  <object id="358" gid="107" x="3751.75" y="315.2" width="209" height="257"/>
  <object id="359" gid="108" x="3679.3" y="389.26" width="150" height="300"/>
  <object id="360" gid="120" x="1301.19" y="2768.51" width="70" height="61"/>
  <object id="361" gid="115" x="2189.18" y="1881.65" width="110" height="80"/>
  <object id="362" gid="104" x="2374.17" y="1702.1" width="198" height="243"/>
  <object id="363" gid="108" x="584.12" y="3510.33" width="150" height="300"/>
  <object id="364" gid="108" x="360.94" y="3738.12" width="150" height="300"/>
  <object id="365" gid="121" x="3164.45" y="936.91" width="103" height="88"/>
  <object id="366" gid="107" x="96.79" y="4012.79" width="209" height="257"/>
  <object id="367" gid="109" x="4000.32" y="112.97" width="173" height="345"/>
  <object id="368" gid="150" x="2480.4" y="1635.6" width="90" height="170"/>
  <object id="369" gid="106" x="1931.74" y="2191.99" width="220" height="270"/>
  <object id="370" gid="103" x="179.62" y="3945.38" width="246" height="302"/>
  <object id="371" gid="105" x="3888.36" y="243.16" width="220" height="270"/>
  <object id="372" gid="102" x="3356.35" y="779.36" width="220" height="270"/>
  <object id="373" gid="115" x="2327.65" y="1809.16" width="110" height="80"/>
  <object id="374" gid="102" x="1158.68" y="3000.68" width="220" height="270"/>
  <object id="375" gid="102" x="872.35" y="3291.81" width="220" height="270"/>
  <object id="376" gid="103" x="3619.87" y="549.74" width="246" height="302"/>
  <object id="377" gid="104" x="962.49" y="3211.78" width="198" height="243"/>
  <object id="378" gid="136" x="3049.6" y="1129.6" width="80" height="90"/>
  <object id="379" gid="108" x="313.86" y="3867.23" width="150" height="300"/>
  <object id="380" gid="103" x="72.61" y="4112.92" width="246" height="302"/>
  <object id="381" gid="105" x="3527" y="659.12" width="220" height="270"/>
  <object id="382" gid="103" x="2261.68" y="1936.98" width="246" height="302"/>
  <object id="383" gid="102" x="4114.37" y="88.2" width="220" height="270"/>
  <object id="384" gid="109" x="1065.57" y="3146.54" width="173" height="345"/>
  <object id="385" gid="102" x="805.04" y="3409.18" width="220" height="270"/>
  <object id="386" gid="102" x="526.01" y="3690.29" width="220" height="270"/>
  <object id="387" gid="103" x="3470.5" y="747.49" width="246" height="302"/>
  <object id="388" gid="108" x="3781.68" y="446.62" width="150" height="300"/>
  <object id="389" gid="119" x="1834.3" y="2404.25" width="80" height="60"/>
  <object id="390" gid="102" x="280.04" y="3964.67" width="220" height="270"/>
  <object id="391" gid="103" x="178.08" y="4073.84" width="246" height="302"/>
  <object id="392" gid="102" x="3994.97" y="263.42" width="220" height="270"/>
  <object id="393" gid="118" x="1277.03" y="2987.25" width="120" height="140"/>
  <object id="394" gid="109" x="482.99" y="3787.71" width="173" height="345"/>
  <object id="395" gid="107" x="729.11" y="3542.36" width="209" height="257"/>
  <object id="396" gid="105" x="3412.31" y="863.68" width="220" height="270"/>
  <object id="397" gid="112" x="3310.64" y="966.75" width="80" height="70"/>
  <object id="398" gid="104" x="2365.82" y="1921.17" width="198" height="243"/>
  <object id="399" gid="115" x="2236.69" y="2054.56" width="110" height="80"/>
  <object id="400" gid="120" x="2132.32" y="2168.98" width="70" height="61"/>
  <object id="401" gid="109" x="146.14" y="4176.14" width="173" height="345"/>
  <object id="402" gid="109" x="3586.51" y="738.32" width="173" height="345"/>
  <object id="403" gid="108" x="1198.92" y="3127.31" width="150" height="300"/>
  <object id="404" gid="135" x="3110.8" y="1216.4" width="110" height="130"/>
  <object id="405" gid="104" x="3887.52" y="439.76" width="198" height="243"/>
  <object id="406" gid="102" x="4240.31" y="87.77" width="220" height="270"/>
  <object id="407" gid="108" x="648.62" y="3687.85" width="150" height="300"/>
  <object id="408" gid="103" x="991.37" y="3349.91" width="246" height="302"/>
  <object id="409" gid="102" x="3743.83" y="602.87" width="220" height="270"/>
  <object id="410" gid="105" x="72.91" y="4276" width="220" height="270"/>
  <object id="411" gid="103" x="1098.28" y="3255.46" width="246" height="302"/>
  <object id="412" gid="102" x="3524.71" y="832.74" width="220" height="270"/>
  <object id="413" gid="104" x="1941.42" y="2418.28" width="198" height="243"/>
  <object id="414" gid="105" x="3980.59" y="379.2" width="220" height="270"/>
  <object id="415" gid="114" x="2047.12" y="2314.83" width="110" height="80"/>
  <object id="416" gid="108" x="446.45" y="3930.82" width="150" height="300"/>
  <object id="417" gid="108" x="338.5" y="4053.23" width="150" height="300"/>
  <object id="418" gid="150" x="2787.6" y="1610" width="90" height="170"/>
  <object id="419" gid="104" x="3851.05" y="554.82" width="198" height="243"/>
  <object id="420" gid="103" x="921.76" y="3487.05" width="246" height="302"/>
  <object id="421" gid="106" x="3357.51" y="1052.53" width="220" height="270"/>
  <object id="422" gid="117" x="2432.11" y="1978.55" width="120" height="140"/>
  <object id="423" gid="104" x="2371.25" y="2041.83" width="198" height="243"/>
  <object id="424" gid="144" x="1669.4" y="2757.4" width="300" height="190"/>
  <object id="425" gid="114" x="1190.58" y="3237.28" width="110" height="80"/>
  <object id="426" gid="109" x="2279.7" y="2148.24" width="173" height="345"/>
  <object id="427" gid="105" x="640.73" y="3789.63" width="220" height="270"/>
  <object id="428" gid="104" x="4183.67" y="246.99" width="198" height="243"/>
  <object id="429" gid="103" x="2148.57" y="2286.21" width="246" height="302"/>
  <object id="430" gid="104" x="3731.49" y="705.04" width="198" height="243"/>
  <object id="431" gid="102" x="783.97" y="3653.57" width="220" height="270"/>
  <object id="432" gid="102" x="4110.3" y="338.22" width="220" height="270"/>
  <object id="433" gid="105" x="257.23" y="4192.56" width="220" height="270"/>
  <object id="434" gid="109" x="871.2" y="3580.18" width="173" height="345"/>
  <object id="435" gid="102" x="64.22" y="4388.31" width="220" height="270"/>
  <object id="436" gid="105" x="4382.4" y="70.97" width="220" height="270"/>
  <object id="437" gid="102" x="2045" y="2408.86" width="220" height="270"/>
  <object id="438" gid="114" x="1903.57" y="2551.22" width="110" height="80"/>
  <object id="439" gid="104" x="4272.02" y="192.3" width="198" height="243"/>
  <object id="440" gid="107" x="3986.55" y="484.38" width="209" height="257"/>
  <object id="441" gid="109" x="3680.87" y="805.31" width="173" height="345"/>
  <object id="442" gid="104" x="196.49" y="4297.08" width="198" height="243"/>
  <object id="443" gid="103" x="1029.28" y="3466.76" width="246" height="302"/>
  <object id="444" gid="104" x="1995.3" y="2502.39" width="198" height="243"/>
  <object id="445" gid="109" x="3514.4" y="990.09" width="173" height="345"/>
  <object id="446" gid="116" x="1124.79" y="3387.22" width="110" height="80"/>
  <object id="447" gid="104" x="619.75" y="3895.33" width="198" height="243"/>
  <object id="448" gid="149" x="2866.4" y="1650.4" width="90" height="180"/>
  <object id="449" gid="114" x="2322.51" y="2217.65" width="110" height="80"/>
  <object id="450" gid="102" x="3466.84" y="1084.51" width="220" height="270"/>
  <object id="451" gid="104" x="975.62" y="3577.34" width="198" height="243"/>
  <object id="452" gid="107" x="2270.23" y="2286.63" width="209" height="257"/>
  <object id="453" gid="114" x="3350.02" y="1209.8" width="110" height="80"/>
  <object id="454" gid="102" x="4484.42" y="78.41" width="220" height="270"/>
  <object id="455" gid="108" x="382.07" y="4184.2" width="150" height="300"/>
  <object id="456" gid="107" x="3860.94" y="714.11" width="209" height="257"/>
  <object id="457" gid="109" x="4380.8" y="195.11" width="173" height="345"/>
  <object id="458" gid="115" x="2069.11" y="2512.35" width="110" height="80"/>
  <object id="459" gid="146" x="3072" y="1510.4" width="240" height="262"/>
  <object id="460" gid="103" x="826.29" y="3762.54" width="246" height="302"/>
  <object id="461" gid="102" x="4316.63" y="282.02" width="220" height="270"/>
  <object id="462" gid="103" x="300.33" y="4298.72" width="246" height="302"/>
  <object id="463" gid="120" x="927.31" y="3677.23" width="70" height="61"/>
  <object id="464" gid="103" x="62.42" y="4544.41" width="246" height="302"/>
  <object id="465" gid="104" x="4236.61" y="370.63" width="198" height="243"/>
  <object id="466" gid="102" x="137.62" y="4475.42" width="220" height="270"/>
  <object id="467" gid="102" x="594.35" y="4020.25" width="220" height="270"/>
  <object id="468" gid="103" x="508.47" y="4110.9" width="246" height="302"/>
  <object id="469" gid="109" x="4059.61" y="560.95" width="173" height="345"/>
  <object id="470" gid="109" x="3987.07" y="637.76" width="173" height="345"/>
  <object id="471" gid="104" x="3780.12" y="850.8" width="198" height="243"/>
  <object id="472" gid="108" x="4140.46" y="490.49" width="150" height="300"/>
  <object id="473" gid="106" x="2164.64" y="2467.6" width="220" height="270"/>
  <object id="474" gid="103" x="3676.8" y="957.75" width="246" height="302"/>
  <object id="475" gid="121" x="2841.27" y="1800.73" width="103" height="88"/>
  <object id="476" gid="114" x="3592.04" y="1056.5" width="110" height="80"/>
  <object id="477" gid="102" x="2252.65" y="2399.79" width="220" height="270"/>
  <object id="478" gid="105" x="778.37" y="3874.43" width="220" height="270"/>
  <object id="479" gid="115" x="1093" y="3575.6" width="110" height="80"/>
  <object id="480" gid="102" x="239.48" y="4434.25" width="220" height="270"/>
  <object id="481" gid="114" x="3192.01" y="1482.99" width="110" height="80"/>
  <object id="482" gid="102" x="722.51" y="3992.54" width="220" height="270"/>
  <object id="483" gid="115" x="3476.62" y="1241.19" width="110" height="80"/>
  <object id="484" gid="103" x="3898.24" y="827.26" width="246" height="302"/>
  <object id="485" gid="103" x="4575.82" y="152.5" width="246" height="302"/>
  <object id="486" gid="102" x="3990.5" y="745.28" width="220" height="270"/>
  <object id="487" gid="104" x="338.85" y="4401.81" width="198" height="243"/>
  <object id="488" gid="108" x="465.18" y="4283.24" width="150" height="300"/>
  <object id="489" gid="102" x="911" y="3840.34" width="220" height="270"/>
  <object id="490" gid="116" x="1670.24" y="3085.06" width="110" height="80"/>
  <object id="491" gid="108" x="4421.39" y="337.6" width="150" height="300"/>
  <object id="492" gid="120" x="3747.45" y="1011.62" width="70" height="61"/>
  <object id="493" gid="151" x="2984" y="1780.8" width="160" height="120"/>
  <object id="494" gid="108" x="4683.89" y="81.73" width="150" height="300"/>
  <object id="495" gid="106" x="593.12" y="4178.97" width="220" height="270"/>
  <object id="496" gid="104" x="2114.24" y="2659.98" width="198" height="243"/>
  <object id="497" gid="112" x="2358.64" y="2425.52" width="80" height="70"/>
  <object id="498" gid="114" x="2232.44" y="2567.11" width="110" height="80"/>
  <object id="499" gid="103" x="1623.07" y="3183.63" width="246" height="302"/>
  <object id="500" gid="107" x="1780.63" y="3028.9" width="209" height="257"/>
  <object id="501" gid="103" x="4216.24" y="593.86" width="246" height="302"/>
  <object id="502" gid="108" x="4355.85" y="457.82" width="150" height="300"/>
  <object id="503" gid="105" x="4095.42" y="720.04" width="220" height="270"/>
  <object id="504" gid="104" x="689.82" y="4129.92" width="198" height="243"/>
  <object id="505" gid="103" x="117.96" y="4709.73" width="246" height="302"/>
  <object id="506" gid="109" x="437" y="4399.61" width="173" height="345"/>
  <object id="507" gid="151" x="3057.6" y="1780.8" width="160" height="120"/>
  <object id="508" gid="117" x="1585.32" y="3253.82" width="120" height="140"/>
  <object id="509" gid="102" x="4551.94" y="290.11" width="220" height="270"/>
  <object id="510" gid="104" x="305.83" y="4540.77" width="198" height="243"/>
  <object id="511" gid="109" x="201.06" y="4650.16" width="173" height="345"/>
  <object id="512" gid="104" x="3972.08" y="897.87" width="198" height="243"/>
  <object id="513" gid="104" x="833.75" y="4036.21" width="198" height="243"/>
  <object id="514" gid="103" x="3893.63" y="976.8" width="246" height="302"/>
  <object id="515" gid="103" x="4196.77" y="693.68" width="246" height="302"/>
  <object id="516" gid="103" x="4795.24" y="99.25" width="246" height="302"/>
  <object id="517" gid="160" x="3561.6" y="1334.4" width="90" height="190"/>
  <object id="518" gid="114" x="902.39" y="4002.74" width="110" height="80"/>
  <object id="519" gid="151" x="3131.2" y="1780.8" width="160" height="120"/>
  <object id="520" gid="161" x="3664" y="1257.6" width="90" height="120"/>
  <object id="521" gid="116" x="789.44" y="4132.54" width="110" height="80"/>
  <object id="522" gid="105" x="4336.83" y="593.3" width="220" height="270"/>
  <object id="523" gid="103" x="4518.31" y="412.09" width="246" height="302"/>
  <object id="524" gid="102" x="1544.86" y="3391.57" width="220" height="270"/>
  <object id="525" gid="108" x="654.87" y="4283.23" width="150" height="300"/>
  <object id="526" gid="108" x="4713.97" y="231.92" width="150" height="300"/>
  <object id="527" gid="108" x="3815.76" y="1135.55" width="150" height="300"/>
  <object id="528" gid="117" x="3493.6" y="1458.4" width="120" height="140"/>
  <object id="529" gid="103" x="308.12" y="4644.55" width="246" height="302"/>
  <object id="530" gid="105" x="123.63" y="4831.35" width="220" height="270"/>
  <object id="531" gid="105" x="4142.91" y="822" width="220" height="270"/>
  <object id="532" gid="112" x="3093.42" y="1875.76" width="80" height="70"/>
  <object id="533" gid="106" x="4434.02" y="540.71" width="220" height="270"/>
  <object id="534" gid="114" x="2891.42" y="2086.68" width="110" height="80"/>
  <object id="535" gid="108" x="745.71" y="4241.81" width="150" height="300"/>
  <object id="536" gid="103" x="4646.28" y="347.54" width="246" height="302"/>
  <object id="537" gid="104" x="4030.12" y="982.7" width="198" height="243"/>
  <object id="538" gid="102" x="491.84" y="4521.14" width="220" height="270"/>
  <object id="539" gid="119" x="3950.46" y="1063.22" width="80" height="60"/>
  <object id="540" gid="112" x="1780.67" y="3235.35" width="80" height="70"/>
  <object id="541" gid="102" x="4305.45" y="721.45" width="220" height="270"/>
  <object id="542" gid="102" x="259.74" y="4787.76" width="220" height="270"/>
  <object id="543" gid="115" x="3039.27" y="2010.02" width="110" height="80"/>
  <object id="544" gid="104" x="612.76" y="4438.91" width="198" height="243"/>
  <object id="545" gid="109" x="4609.13" y="448.57" width="173" height="345"/>
  <object id="546" gid="107" x="4126.91" y="931.79" width="209" height="257"/>
  <object id="547" gid="102" x="2851.53" y="2223.35" width="220" height="270"/>
  <object id="548" gid="107" x="4424.76" y="650.57" width="209" height="257"/>
  <object id="549" gid="122" x="1392.8" y="3696.8" width="141" height="119"/>
  <object id="550" gid="104" x="454.8" y="4635.83" width="198" height="243"/>
  <object id="551" gid="108" x="874.45" y="4235.15" width="150" height="300"/>
  <object id="552" gid="137" x="2367.2" y="2751.2" width="70" height="70"/>
  <object id="553" gid="102" x="775.37" y="4346.28" width="220" height="270"/>
  <object id="554" gid="114" x="3268.08" y="1858.2" width="110" height="80"/>
  <object id="555" gid="109" x="387.46" y="4742.75" width="173" height="345"/>
  <object id="556" gid="107" x="4835.49" y="295.19" width="209" height="257"/>
  <object id="557" gid="104" x="4258.32" y="874.58" width="198" height="243"/>
  <object id="558" gid="104" x="4729.29" y="408.99" width="198" height="243"/>
  <object id="559" gid="108" x="4102.41" y="1049.13" width="150" height="300"/>
  <object id="560" gid="119" x="2753.75" y="2406.39" width="80" height="60"/>
  <object id="561" gid="103" x="4541.22" y="622.22" width="246" height="302"/>
  <object id="562" gid="114" x="1211.6" y="3968.19" width="110" height="80"/>
  <object id="563" gid="105" x="4053.8" y="1136.57" width="220" height="270"/>
  <object id="564" gid="115" x="754.41" y="4444.14" width="110" height="80"/>
  <object id="565" gid="104" x="586.69" y="4615.24" width="198" height="243"/>
  <object id="566" gid="105" x="699.45" y="4530.69" width="220" height="270"/>
  <object id="567" gid="121" x="1747" y="3487.8" width="103" height="88"/>
  <object id="568" gid="114" x="3187.83" y="2053.75" width="110" height="80"/>
  <object id="569" gid="109" x="4722.91" y="521.39" width="173" height="345"/>
  <object id="570" gid="115" x="2700.47" y="2546.59" width="110" height="80"/>
  <object id="571" gid="102" x="3256.2" y="1991.69" width="220" height="270"/>
  <object id="572" gid="109" x="3331.86" y="1920.97" width="173" height="345"/>
  <object id="573" gid="115" x="3450.56" y="1816.76" width="110" height="80"/>
  <object id="574" gid="108" x="4392.82" y="877.15" width="150" height="300"/>
  <object id="575" gid="133" x="2213.6" y="3058.4" width="120" height="130"/>
  <object id="576" gid="104" x="1581.64" y="3696.08" width="198" height="243"/>
  <object id="577" gid="102" x="4480.74" y="811.79" width="220" height="270"/>
  <object id="578" gid="106" x="4820.66" y="471.89" width="220" height="270"/>
  <object id="579" gid="136" x="2569.6" y="2729.6" width="80" height="90"/>
  <object id="580" gid="108" x="4651.34" y="652.04" width="150" height="300"/>
  <object id="581" gid="103" x="4240.19" y="1068.19" width="246" height="302"/>
  <object id="582" gid="104" x="515.16" y="4805.78" width="198" height="243"/>
  <object id="583" gid="116" x="4061.15" y="1262.34" width="110" height="80"/>
  <object id="584" gid="108" x="1243.98" y="4081.05" width="150" height="300"/>
  <object id="585" gid="105" x="701.24" y="4630.38" width="220" height="270"/>
  <object id="586" gid="105" x="4152.11" y="1206.92" width="220" height="270"/>
  <object id="587" gid="118" x="3954.4" y="1407.2" width="120" height="140"/>
  <object id="588" gid="115" x="1211.59" y="4158.43" width="110" height="80"/>
  <object id="589" gid="106" x="1429.15" y="3942.71" width="220" height="270"/>
  <object id="590" gid="112" x="2834.28" y="2538.95" width="80" height="70"/>
  <object id="591" gid="120" x="780.66" y="4597.5" width="70" height="61"/>
  <object id="592" gid="107" x="4608.95" y="784.26" width="209" height="257"/>
  <object id="593" gid="109" x="3455.11" y="1939.8" width="173" height="345"/>
  <object id="594" gid="143" x="2533.2" y="2866" width="230" height="190"/>
  <object id="595" gid="104" x="4363.8" y="1036.63" width="198" height="243"/>
  <object id="596" gid="108" x="674.06" y="4727.22" width="150" height="300"/>
  <object id="597" gid="104" x="3202.89" y="2198.7" width="198" height="243"/>
  <object id="598" gid="113" x="1938.95" y="3468.32" width="130" height="70"/>
  <object id="599" gid="119" x="3329.89" y="2079.14" width="80" height="60"/>
  <object id="600" gid="115" x="1365.02" y="4061.32" width="110" height="80"/>
  <object id="601" gid="114" x="1125.85" y="4310.74" width="110" height="80"/>
  <object id="602" gid="108" x="620.21" y="4817.83" width="150" height="300"/>
  <object id="603" gid="102" x="4815.29" y="654.6" width="220" height="270"/>
  <object id="604" gid="102" x="4565.38" y="904.93" width="220" height="270"/>
  <object id="605" gid="109" x="1302.74" y="4172.73" width="173" height="345"/>
  <object id="606" gid="108" x="1210.07" y="4272.92" width="150" height="300"/>
  <object id="607" gid="109" x="4343.52" y="1144.63" width="173" height="345"/>
  <object id="608" gid="103" x="3435.48" y="2058.68" width="246" height="302"/>
  <object id="609" gid="105" x="4501.04" y="994.76" width="220" height="270"/>
  <object id="610" gid="112" x="751.84" y="4747.6" width="80" height="70"/>
  <object id="611" gid="102" x="4747.29" y="758.89" width="220" height="270"/>
  <object id="612" gid="103" x="4199.46" y="1310.77" width="246" height="302"/>
  <object id="613" gid="161" x="3907.2" y="1603.2" width="90" height="120"/>
  <object id="614" gid="116" x="2081.49" y="3429.57" width="110" height="80"/>
  <object id="615" gid="115" x="2854.35" y="2656.72" width="110" height="80"/>
  <object id="616" gid="109" x="4276.2" y="1247.62" width="173" height="345"/>
  <object id="617" gid="114" x="3795.46" y="1749.04" width="110" height="80"/>
  <object id="618" gid="108" x="4663.56" y="881.74" width="150" height="300"/>
  <object id="619" gid="102" x="3537.77" y="2007.68" width="220" height="270"/>
  <object id="620" gid="134" x="2611.6" y="2944.4" width="110" height="90"/>
  <object id="621" gid="116" x="2217.78" y="3338.88" width="110" height="80"/>
  <object id="622" gid="103" x="4018.37" y="1539.86" width="246" height="302"/>
  <object id="623" gid="102" x="1421.32" y="4138.1" width="220" height="270"/>
  <object id="624" gid="103" x="3615.94" y="1946.33" width="246" height="302"/>
  <object id="625" gid="103" x="4483.83" y="1093.38" width="246" height="302"/>
  <object id="626" gid="102" x="1185.46" y="4403.08" width="220" height="270"/>
  <object id="627" gid="114" x="4126.23" y="1480.14" width="110" height="80"/>
  <object id="628" gid="104" x="4646.07" y="987.6" width="198" height="243"/>
  <object id="629" gid="115" x="1490.3" y="4150.21" width="110" height="80"/>
  <object id="630" gid="115" x="3468.49" y="2178.62" width="110" height="80"/>
  <object id="631" gid="108" x="1412.21" y="4235.35" width="150" height="300"/>
  <object id="632" gid="112" x="1071.18" y="4578.04" width="80" height="70"/>
  <object id="633" gid="115" x="2842.69" y="2808.24" width="110" height="80"/>
  <object id="634" gid="108" x="3548.62" y="2106.73" width="150" height="300"/>
  <object id="635" gid="104" x="4300.31" y="1355.89" width="198" height="243"/>
  <object id="636" gid="104" x="4765.31" y="890.9" width="198" height="243"/>
  <object id="637" gid="108" x="1174.73" y="4501.32" width="150" height="300"/>
  <object id="638" gid="114" x="3785.96" y="1890.28" width="110" height="80"/>
  <object id="639" gid="104" x="3718.13" y="1991.37" width="198" height="243"/>
  <object id="640" gid="120" x="3199.2" y="2534.63" width="70" height="61"/>
  <object id="641" gid="121" x="1951.8" y="3782.2" width="103" height="88"/>
  <object id="642" gid="105" x="1377.76" y="4359.47" width="220" height="270"/>
  <object id="643" gid="102" x="4269.39" y="1479.24" width="220" height="270"/>
  <object id="644" gid="114" x="3922.51" y="1833.66" width="110" height="80"/>
  <object id="645" gid="105" x="2198.28" y="3558.45" width="220" height="270"/>
  <object id="646" gid="102" x="4469.43" y="1293.28" width="220" height="270"/>
  <object id="647" gid="106" x="4753.03" y="1012.72" width="220" height="270"/>
  <object id="648" gid="118" x="985.9" y="4780.37" width="120" height="140"/>
  <object id="649" gid="108" x="3647.96" y="2119.13" width="150" height="300"/>
  <object id="650" gid="106" x="4582.68" y="1184.82" width="220" height="270"/>
  <object id="651" gid="102" x="4401.56" y="1368.51" width="220" height="270"/>
  <object id="652" gid="109" x="1556.16" y="4218.66" width="173" height="345"/>
  <object id="653" gid="108" x="3814.63" y="1967.41" width="150" height="300"/>
  <object id="654" gid="108" x="4683.08" y="1099.21" width="150" height="300"/>
  <object id="655" gid="121" x="1861.01" y="3921.82" width="103" height="88"/>
  <object id="656" gid="102" x="1148.37" y="4641.21" width="220" height="270"/>
  <object id="657" gid="119" x="1663.25" y="4132.23" width="80" height="60"/>
  <object id="658" gid="116" x="2390.53" y="3407.02" width="110" height="80"/>
  <object id="659" gid="108" x="2969.85" y="2837.93" width="150" height="300"/>
  <object id="660" gid="114" x="4104.03" y="1704.75" width="110" height="80"/>
  <object id="661" gid="105" x="1485.26" y="4324.95" width="220" height="270"/>
  <object id="662" gid="105" x="1235.55" y="4585.5" width="220" height="270"/>
  <object id="663" gid="114" x="2900.49" y="2938.43" width="110" height="80"/>
  <object id="664" gid="118" x="2312.33" y="3527.36" width="120" height="140"/>
  <object id="665" gid="115" x="1791.52" y="4051.02" width="110" height="80"/>
  <object id="666" gid="114" x="2133.76" y="3711.4" width="110" height="80"/>
  <object id="667" gid="105" x="1347.61" y="4500.75" width="220" height="270"/>
  <object id="668" gid="106" x="2201.17" y="3662.9" width="220" height="270"/>
  <object id="669" gid="116" x="3099.28" y="2764.87" width="110" height="80"/>
  <object id="670" gid="105" x="2511.99" y="3355.63" width="220" height="270"/>
  <object id="671" gid="104" x="4271.79" y="1604.01" width="198" height="243"/>
  <object id="672" gid="107" x="2830.14" y="3050.77" width="209" height="257"/>
  <object id="673" gid="115" x="3548.01" y="2334.56" width="110" height="80"/>
  <object id="674" gid="103" x="4357.57" y="1528.44" width="246" height="302"/>
  <object id="675" gid="105" x="4540.16" y="1365.82" width="220" height="270"/>
  <object id="676" gid="109" x="4183.8" y="1723.13" width="173" height="345"/>
  <object id="677" gid="102" x="1076.57" y="4830.7" width="220" height="270"/>
  <object id="678" gid="105" x="4705.38" y="1206.17" width="220" height="270"/>
  <object id="679" gid="115" x="1988.66" y="3924.82" width="110" height="80"/>
  <object id="680" gid="108" x="4784.05" y="1131.01" width="150" height="300"/>
  <object id="681" gid="102" x="4099.32" y="1822.99" width="220" height="270"/>
  <object id="682" gid="103" x="3904.22" y="2022.18" width="246" height="302"/>
  <object id="683" gid="108" x="4473.38" y="1454.64" width="150" height="300"/>
  <object id="684" gid="102" x="3690.23" y="2239.54" width="220" height="270"/>
  <object id="685" gid="109" x="3767.13" y="2169.34" width="173" height="345"/>
  <object id="686" gid="102" x="1739.4" y="4206.94" width="220" height="270"/>
  <object id="687" gid="102" x="3994.12" y="1957.26" width="220" height="270"/>
  <object id="688" gid="102" x="3048.39" y="2911.46" width="220" height="270"/>
  <object id="689" gid="108" x="2347.34" y="3617.32" width="150" height="300"/>
  <object id="690" gid="108" x="1641.2" y="4331.77" width="150" height="300"/>
  <object id="691" gid="104" x="1241.16" y="4747.11" width="198" height="243"/>
  <object id="692" gid="105" x="2167.9" y="3827.03" width="220" height="270"/>
  <object id="693" gid="104" x="1863.68" y="4132.75" width="198" height="243"/>
  <object id="694" gid="106" x="3880.6" y="2120.14" width="220" height="270"/>
  <object id="695" gid="104" x="2521.1" y="3482.32" width="198" height="243"/>
  <object id="696" gid="104" x="4671.16" y="1336.74" width="198" height="243"/>
  <object id="697" gid="109" x="1341.71" y="4671.29" width="173" height="345"/>
  <object id="698" gid="102" x="2257.03" y="3758.7" width="220" height="270"/>
  <object id="699" gid="109" x="1525.2" y="4492.48" width="173" height="345"/>
  <object id="700" gid="105" x="1430.31" y="4589.4" width="220" height="270"/>
  <object id="701" gid="120" x="3542.12" y="2492.84" width="70" height="61"/>
  <object id="702" gid="108" x="2123.25" y="3921.82" width="150" height="300"/>
  <object id="703" gid="116" x="2620.32" y="3425.69" width="110" height="80"/>
  <object id="704" gid="115" x="3008.64" y="3046.89" width="110" height="80"/>
  <object id="705" gid="105" x="3667.5" y="2390.89" width="220" height="270"/>
  <object id="706" gid="108" x="3782.88" y="2279.05" width="150" height="300"/>
  <object id="707" gid="104" x="4353.93" y="1710.31" width="198" height="243"/>
  <object id="708" gid="106" x="3990.61" y="2074.1" width="220" height="270"/>
  <object id="709" gid="109" x="1839.07" y="4235.91" width="173" height="345"/>
  <object id="710" gid="108" x="4477.55" y="1604.06" width="150" height="300"/>
  <object id="711" gid="104" x="1635.46" y="4449.47" width="198" height="243"/>
  <object id="712" gid="102" x="4657.8" y="1435.91" width="220" height="270"/>
  <object id="713" gid="108" x="1766.84" y="4328.08" width="150" height="300"/>
  <object id="714" gid="108" x="2082.25" y="4013.72" width="150" height="300"/>
  <object id="715" gid="102" x="2448.89" y="3647.64" width="220" height="270"/>
  <object id="716" gid="103" x="3143.61" y="2958.28" width="246" height="302"/>
  <object id="717" gid="108" x="3872.21" y="2230.98" width="150" height="300"/>
  <object id="718" gid="108" x="4815.42" y="1291.14" width="150" height="300"/>
  <object id="719" gid="102" x="4267" y="1842.14" width="220" height="270"/>
  <object id="720" gid="108" x="1282.51" y="4837.97" width="150" height="300"/>
  <object id="721" gid="102" x="1953" y="4176.44" width="220" height="270"/>
  <object id="722" gid="104" x="3461.79" y="2673.89" width="198" height="243"/>
  <object id="723" gid="120" x="3289.33" y="2863.08" width="70" height="61"/>
  <object id="724" gid="102" x="1393.76" y="4759.18" width="220" height="270"/>
  <object id="725" gid="103" x="4622.99" y="1544.22" width="246" height="302"/>
  <object id="726" gid="102" x="1556.86" y="4611.4" width="220" height="270"/>
  <object id="727" gid="104" x="4131.45" y="2037.11" width="198" height="243"/>
  <object id="728" gid="104" x="3666.58" y="2504.51" width="198" height="243"/>
  <object id="729" gid="108" x="4229.3" y="1943.44" width="150" height="300"/>
  <object id="730" gid="108" x="2388.21" y="3784.54" width="150" height="300"/>
  <object id="731" gid="103" x="2046.5" y="4141.75" width="246" height="302"/>
  <object id="732" gid="109" x="4011.12" y="2183.79" width="173" height="345"/>
  <object id="733" gid="109" x="4781.66" y="1414.58" width="173" height="345"/>
  <object id="734" gid="109" x="4500.77" y="1708.78" width="173" height="345"/>
  <object id="735" gid="106" x="2328.61" y="3885.34" width="220" height="270"/>
  <object id="736" gid="104" x="1788.75" y="4436.59" width="198" height="243"/>
  <object id="737" gid="102" x="1701.35" y="4524.72" width="220" height="270"/>
  <object id="738" gid="120" x="3159.75" y="3068.43" width="70" height="61"/>
  <object id="739" gid="105" x="1947.1" y="4288.04" width="220" height="270"/>
  <object id="740" gid="102" x="1495.77" y="4742.7" width="220" height="270"/>
  <object id="741" gid="107" x="4600.08" y="1640.98" width="209" height="257"/>
  <object id="742" gid="106" x="2629.85" y="3615" width="220" height="270"/>
  <object id="743" gid="102" x="3820.49" y="2426.7" width="220" height="270"/>
  <object id="744" gid="105" x="2258.57" y="3993.15" width="220" height="270"/>
  <object id="745" gid="105" x="2162.46" y="4090.1" width="220" height="270"/>
  <object id="746" gid="102" x="3244.92" y="3009" width="220" height="270"/>
  <object id="747" gid="115" x="3638.84" y="2622.47" width="110" height="80"/>
  <object id="748" gid="108" x="3351.99" y="2915.55" width="150" height="300"/>
  <object id="749" gid="108" x="4385.52" y="1892.88" width="150" height="300"/>
  <object id="750" gid="104" x="2535.17" y="3748.77" width="198" height="243"/>
  <object id="751" gid="108" x="3982.91" y="2320.07" width="150" height="300"/>
  <object id="752" gid="117" x="2757.91" y="3548.35" width="120" height="140"/>
  <object id="753" gid="102" x="4227.61" y="2085.29" width="220" height="270"/>
  <object id="754" gid="118" x="3541.14" y="2772.45" width="120" height="140"/>
  <object id="755" gid="104" x="4479.21" y="1836.03" width="198" height="243"/>
  <object id="756" gid="104" x="3734.06" y="2581.96" width="198" height="243"/>
  <object id="757" gid="105" x="1656.31" y="4663.58" width="220" height="270"/>
  <object id="758" gid="102" x="4150.87" y="2170.03" width="220" height="270"/>
  <object id="759" gid="116" x="3445.6" y="2878.36" width="110" height="80"/>
  <object id="760" gid="105" x="4781.03" y="1555.17" width="220" height="270"/>
  <object id="761" gid="109" x="4709.42" y="1640.22" width="173" height="345"/>
  <object id="762" gid="104" x="4353" y="2003.81" width="198" height="243"/>
  <object id="763" gid="108" x="1747.87" y="4614.29" width="150" height="300"/>
  <object id="764" gid="103" x="2502.69" y="3868.51" width="246" height="302"/>
  <object id="765" gid="108" x="1549.61" y="4825.25" width="150" height="300"/>
  <object id="766" gid="104" x="1891.38" y="4493.17" width="198" height="243"/>
  <object id="767" gid="103" x="3545.75" y="2857.58" width="246" height="302"/>
  <object id="768" gid="102" x="4125.56" y="2280.11" width="220" height="270"/>
  <object id="769" gid="102" x="2298.03" y="4108.78" width="220" height="270"/>
  <object id="770" gid="102" x="2001.88" y="4413.1" width="220" height="270"/>
  <object id="771" gid="103" x="3397.09" y="3018.48" width="246" height="302"/>
  <object id="772" gid="105" x="2102.81" y="4315.23" width="220" height="270"/>
  <object id="773" gid="108" x="2418.21" y="4014.5" width="150" height="300"/>
  <object id="774" gid="104" x="4643.12" y="1790.81" width="198" height="243"/>
  <object id="775" gid="104" x="3712.11" y="2728.24" width="198" height="243"/>
  <object id="776" gid="107" x="1848.86" y="4591.66" width="209" height="257"/>
  <object id="777" gid="108" x="3823.54" y="2618.67" width="150" height="300"/>
  <object id="778" gid="103" x="4575.81" y="1868.92" width="246" height="302"/>
  <object id="779" gid="102" x="2235.79" y="4215.36" width="220" height="270"/>
  <object id="780" gid="108" x="3975.67" y="2479.32" width="150" height="300"/>
  <object id="781" gid="102" x="2685.07" y="3775.03" width="220" height="270"/>
  <object id="782" gid="119" x="3351.39" y="3127.81" width="80" height="60"/>
  <object id="783" gid="102" x="1659.82" y="4829.99" width="220" height="270"/>
  <object id="784" gid="107" x="4538.91" y="1962.39" width="209" height="257"/>
  <object id="785" gid="103" x="1744.33" y="4759.29" width="246" height="302"/>
  <object id="786" gid="102" x="4338.08" y="2167.95" width="220" height="270"/>
  <object id="787" gid="102" x="3525.31" y="3003.54" width="220" height="270"/>
  <object id="788" gid="102" x="4485.77" y="2057.03" width="220" height="270"/>
  <object id="789" gid="102" x="4078.01" y="2467.99" width="220" height="270"/>
  <object id="790" gid="104" x="3926.74" y="2623.64" width="198" height="243"/>
  <object id="791" gid="108" x="3668.55" y="2882.56" width="150" height="300"/>
  <object id="792" gid="108" x="2656.73" y="3897.7" width="150" height="300"/>
  <object id="793" gid="103" x="3476.14" y="3090.48" width="246" height="302"/>
  <object id="794" gid="104" x="2829.14" y="3739.03" width="198" height="243"/>
  <object id="795" gid="103" x="4280.24" y="2296.33" width="246" height="302"/>
  <object id="796" gid="105" x="1889.4" y="4687.35" width="220" height="270"/>
  <object id="797" gid="108" x="2125.61" y="4456.03" width="150" height="300"/>
  <object id="798" gid="102" x="2470.28" y="4118.24" width="220" height="270"/>
  <object id="799" gid="108" x="4686.91" y="1908.37" width="150" height="300"/>
  <object id="800" gid="107" x="2274.19" y="4321.53" width="209" height="257"/>
  <object id="801" gid="102" x="4829.72" y="1773.58" width="220" height="270"/>
  <object id="802" gid="108" x="4043.05" y="2566.18" width="150" height="300"/>
  <object id="803" gid="108" x="2603.95" y="4014.36" width="150" height="300"/>
  <object id="804" gid="109" x="2376.96" y="4247.7" width="173" height="345"/>
  <object id="805" gid="106" x="1997.05" y="4632.43" width="220" height="270"/>
  <object id="806" gid="102" x="4235.75" y="2401.35" width="220" height="270"/>
  <object id="807" gid="106" x="3327" y="3312.71" width="220" height="270"/>
  <object id="808" gid="104" x="2077.58" y="4570.93" width="198" height="243"/>
  <object id="809" gid="102" x="3650.94" y="2997.59" width="220" height="270"/>
  <object id="810" gid="107" x="3915.85" y="2733.83" width="209" height="257"/>
  <object id="811" gid="102" x="3824.13" y="2825.79" width="220" height="270"/>
  <object id="812" gid="102" x="4446.29" y="2204.14" width="220" height="270"/>
  <object id="813" gid="108" x="2784" y="3879.66" width="150" height="300"/>
  <object id="814" gid="119" x="2991.69" y="3680.05" width="80" height="60"/>
  <object id="815" gid="109" x="2714.76" y="3983.89" width="173" height="345"/>
  <object id="816" gid="106" x="1879.17" y="4821.35" width="220" height="270"/>
  <object id="817" gid="109" x="1975.07" y="4739.45" width="173" height="345"/>
  <object id="818" gid="109" x="2596.47" y="4123.8" width="173" height="345"/>
  <object id="819" gid="102" x="2271.58" y="4452.52" width="220" height="270"/>
  <object id="820" gid="104" x="3553.61" y="3176.1" width="198" height="243"/>
  <object id="821" gid="105" x="2886.06" y="3848.82" width="220" height="270"/>
  <object id="822" gid="102" x="3775.1" y="2960.88" width="220" height="270"/>
  <object id="823" gid="104" x="4407.54" y="2335.48" width="198" height="243"/>
  <object id="824" gid="109" x="4837.23" y="1917.84" width="173" height="345"/>
  <object id="825" gid="104" x="4599.87" y="2160.96" width="198" height="243"/>
  <object id="826" gid="108" x="4089.26" y="2681.48" width="150" height="300"/>
  <object id="827" gid="109" x="4200.06" y="2577.83" width="173" height="345"/>
  <object id="828" gid="102" x="4704.97" y="2077.04" width="220" height="270"/>
  <object id="829" gid="106" x="2204.13" y="4578.08" width="220" height="270"/>
  <object id="830" gid="115" x="3531.02" y="3268.91" width="110" height="80"/>
  <object id="831" gid="106" x="3718.6" y="3094.05" width="220" height="270"/>
  <object id="832" gid="109" x="4506.89" y="2305.93" width="173" height="345"/>
  <object id="833" gid="108" x="2734.21" y="4082.85" width="150" height="300"/>
  <object id="834" gid="108" x="3909.57" y="2909.8" width="150" height="300"/>
  <object id="835" gid="109" x="4795.74" y="2028.72" width="173" height="345"/>
  <object id="836" gid="108" x="4297.43" y="2529.45" width="150" height="300"/>
  <object id="837" gid="104" x="2865.43" y="3964.45" width="198" height="243"/>
  <object id="838" gid="103" x="2433.64" y="4406.97" width="246" height="302"/>
  <object id="839" gid="107" x="2517.47" y="4323.15" width="209" height="257"/>
  <object id="840" gid="102" x="2130.15" y="4716.23" width="220" height="270"/>
  <object id="841" gid="109" x="4391.18" y="2467.39" width="173" height="345"/>
  <object id="842" gid="108" x="2615.68" y="4248.1" width="150" height="300"/>
  <object id="843" gid="103" x="4085.65" y="2788.9" width="246" height="302"/>
  <object id="844" gid="104" x="2076.92" y="4809.87" width="198" height="243"/>
  <object id="845" gid="104" x="4690.68" y="2200.88" width="198" height="243"/>
  <object id="846" gid="104" x="2349.22" y="4545.32" width="198" height="243"/>
  <object id="847" gid="108" x="4018.88" y="2883.87" width="150" height="300"/>
  <object id="848" gid="112" x="2882.39" y="4034.54" width="80" height="70"/>
  <object id="849" gid="108" x="2709.74" y="4212.14" width="150" height="300"/>
  <object id="850" gid="105" x="3854.5" y="3074.95" width="220" height="270"/>
  <object id="851" gid="104" x="4644.1" y="2292.43" width="198" height="243"/>
  <object id="852" gid="115" x="3726.43" y="3210.36" width="110" height="80"/>
  <object id="853" gid="103" x="4494.4" y="2445.13" width="246" height="302"/>
  <object id="854" gid="104" x="4821.7" y="2137.46" width="198" height="243"/>
  <object id="855" gid="108" x="2804.39" y="4155.78" width="150" height="300"/>
  <object id="856" gid="108" x="2471.91" y="4495.63" width="150" height="300"/>
  <object id="857" gid="103" x="4312.14" y="2663.73" width="246" height="302"/>
  <object id="858" gid="103" x="2565.65" y="4419.75" width="246" height="302"/>
  <object id="859" gid="103" x="4236.22" y="2751.84" width="246" height="302"/>
  <object id="860" gid="102" x="4413.11" y="2579.42" width="220" height="270"/>
  <object id="861" gid="103" x="3968.65" y="3024.2" width="246" height="302"/>
  <object id="862" gid="108" x="4594.27" y="2398.63" width="150" height="300"/>
  <object id="863" gid="108" x="2300.49" y="4701.04" width="150" height="300"/>
  <object id="864" gid="109" x="2651.86" y="4364.52" width="173" height="345"/>
  <object id="865" gid="104" x="2176.76" y="4840.21" width="198" height="243"/>
  <object id="866" gid="115" x="2875.24" y="4191.93" width="110" height="80"/>
  <object id="867" gid="107" x="2417.55" y="4665.48" width="209" height="257"/>
  <object id="868" gid="102" x="4813.31" y="2271.12" width="220" height="270"/>
  <object id="869" gid="108" x="4745.03" y="2347.53" width="150" height="300"/>
  <object id="870" gid="105" x="2839.27" y="4264.43" width="220" height="270"/>
  <object id="871" gid="103" x="2764.1" y="4347.68" width="246" height="302"/>
  <object id="872" gid="104" x="4520.18" y="2593.46" width="198" height="243"/>
  <object id="873" gid="115" x="4016.4" y="3098.14" width="110" height="80"/>
  <object id="874" gid="103" x="4278.49" y="2848.8" width="246" height="302"/>
  <object id="875" gid="104" x="4209.47" y="2935.42" width="198" height="243"/>
  <object id="876" gid="103" x="2306.65" y="4843.26" width="246" height="302"/>
  <object id="877" gid="104" x="4458.45" y="2692.77" width="198" height="243"/>
  <object id="878" gid="103" x="4117.59" y="3037.95" width="246" height="302"/>
  <object id="879" gid="102" x="4618.99" y="2536.79" width="220" height="270"/>
  <object id="880" gid="102" x="4378.63" y="2778.27" width="220" height="270"/>
  <object id="881" gid="136" x="3715.2" y="3446.4" width="80" height="90"/>
  <object id="882" gid="115" x="3090.48" y="4079.18" width="110" height="80"/>
  <object id="883" gid="137" x="3762.4" y="3416.8" width="70" height="70"/>
  <object id="884" gid="108" x="2593.41" y="4590.62" width="150" height="300"/>
  <object id="885" gid="132" x="3550.8" y="3640.4" width="130" height="150"/>
  <object id="886" gid="103" x="4727.72" y="2468.35" width="246" height="302"/>
  <object id="887" gid="133" x="3378.4" y="3839.2" width="120" height="130"/>
  <object id="888" gid="104" x="2705.96" y="4530.52" width="198" height="243"/>
  <object id="889" gid="109" x="2410.8" y="4828.73" width="173" height="345"/>
  <object id="890" gid="103" x="2488.44" y="4752.02" width="246" height="302"/>
  <object id="891" gid="108" x="4562.96" y="2694.15" width="150" height="300"/>
  <object id="892" gid="109" x="4125.03" y="3136.57" width="173" height="345"/>
  <object id="893" gid="105" x="4345.97" y="2923.38" width="220" height="270"/>
  <object id="894" gid="109" x="2876.55" y="4404.37" width="173" height="345"/>
  <object id="895" gid="102" x="2808.28" y="4479.44" width="220" height="270"/>
  <object id="896" gid="108" x="4277.63" y="3025.81" width="150" height="300"/>
  <object id="897" gid="102" x="4684.44" y="2641.41" width="220" height="270"/>
  <object id="898" gid="109" x="2613.83" y="4715.66" width="173" height="345"/>
  <object id="899" gid="109" x="4838.42" y="2497" width="173" height="345"/>
  <object id="900" gid="105" x="2705.93" y="4635.22" width="220" height="270"/>
  <object id="901" gid="140" x="4072" y="3272" width="150" height="110"/>
  <object id="902" gid="104" x="4497" y="2850.81" width="198" height="243"/>
  <object id="903" gid="120" x="4226.01" y="3157.8" width="70" height="61"/>
  <object id="904" gid="112" x="3064.11" y="4326.32" width="80" height="70"/>
  <object id="905" gid="102" x="2556.96" y="4837.47" width="220" height="270"/>
  <object id="906" gid="107" x="2983.02" y="4417.53" width="209" height="257"/>
  <object id="907" gid="140" x="4136" y="3272" width="150" height="110"/>
  <object id="908" gid="108" x="4659.96" y="2755.43" width="150" height="300"/>
  <object id="909" gid="128" x="3961.2" y="3455.6" width="330" height="330"/>
  <object id="910" gid="103" x="4429.98" y="2997.03" width="246" height="302"/>
  <object id="911" gid="104" x="2655.9" y="4811.18" width="198" height="243"/>
  <object id="912" gid="102" x="4829.6" y="2637.91" width="220" height="270"/>
  <object id="913" gid="109" x="4520.02" y="2949.47" width="173" height="345"/>
  <object id="914" gid="107" x="2905.47" y="4565.79" width="209" height="257"/>
  <object id="915" gid="140" x="4200" y="3272" width="150" height="110"/>
  <object id="916" gid="105" x="4370.18" y="3116.35" width="220" height="270"/>
  <object id="917" gid="103" x="4633.85" y="2854.25" width="246" height="302"/>
  <object id="918" gid="103" x="2847.4" y="4651.84" width="246" height="302"/>
  <object id="919" gid="118" x="4179.67" y="3320.77" width="120" height="140"/>
  <object id="920" gid="139" x="3478.8" y="4029.2" width="70" height="160"/>
  <object id="921" gid="106" x="4295.9" y="3214.04" width="220" height="270"/>
  <object id="922" gid="140" x="4264" y="3272" width="150" height="110"/>
  <object id="923" gid="108" x="4777.75" y="2769.59" width="150" height="300"/>
  <object id="924" gid="105" x="2807.66" y="4751.09" width="220" height="270"/>
  <object id="925" gid="138" x="3369.6" y="4201.6" width="100" height="80"/>
  <object id="926" gid="109" x="4495.05" y="3083.59" width="173" height="345"/>
  <object id="927" gid="105" x="3054.01" y="4532.5" width="220" height="270"/>
  <object id="928" gid="108" x="3153.06" y="4437.62" width="150" height="300"/>
  <object id="929" gid="139" x="4029.2" y="3594" width="70" height="160"/>
  <object id="930" gid="105" x="2990.51" y="4632.71" width="220" height="270"/>
  <object id="931" gid="102" x="4590.03" y="3039.64" width="220" height="270"/>
  <object id="932" gid="105" x="4661.31" y="2970.34" width="220" height="270"/>
  <object id="933" gid="116" x="4220.58" y="3434.74" width="110" height="80"/>
  <object id="934" gid="104" x="4464.77" y="3195.69" width="198" height="243"/>
  <object id="935" gid="102" x="2936.19" y="4727.68" width="220" height="270"/>
  <object id="936" gid="108" x="4374.9" y="3293.27" width="150" height="300"/>
  <object id="937" gid="102" x="2868.97" y="4838.27" width="220" height="270"/>
  <object id="938" gid="114" x="3317.9" y="4432.28" width="110" height="80"/>
  <object id="939" gid="108" x="4826.1" y="2925.17" width="150" height="300"/>
  <object id="940" gid="108" x="3262.64" y="4515.24" width="150" height="300"/>
  <object id="941" gid="105" x="4487.87" y="3296.79" width="220" height="270"/>
  <object id="942" gid="106" x="3094" y="4696.57" width="220" height="270"/>
  <object id="943" gid="116" x="4373.61" y="3423.26" width="110" height="80"/>
  <object id="944" gid="131" x="3908.4" y="3895.6" width="140" height="170"/>
  <object id="945" gid="108" x="2986.18" y="4823.09" width="150" height="300"/>
  <object id="946" gid="108" x="4691.02" y="3122.31" width="150" height="300"/>
  <object id="947" gid="108" x="4614.65" y="3205.31" width="150" height="300"/>
  <object id="948" gid="103" x="3221" y="4612.51" width="246" height="302"/>
  <object id="949" gid="107" x="4842.92" y="3027.59" width="209" height="257"/>
  <object id="950" gid="108" x="4599.12" y="3338.96" width="150" height="300"/>
  <object id="951" gid="104" x="4809.19" y="3131.55" width="198" height="243"/>
  <object id="952" gid="113" x="3417.62" y="4529.4" width="130" height="70"/>
  <object id="953" gid="109" x="3173.3" y="4774.22" width="173" height="345"/>
  <object id="954" gid="109" x="3289.63" y="4693.06" width="173" height="345"/>
  <object id="955" gid="102" x="4550.02" y="3438.86" width="220" height="270"/>
  <object id="956" gid="141" x="4494.4" y="3496" width="150" height="110"/>
  <object id="957" gid="128" x="3641.2" y="4390" width="330" height="330"/>
  <object id="958" gid="103" x="3383.18" y="4651.11" width="246" height="302"/>
  <object id="959" gid="141" x="4494.4" y="3560" width="150" height="110"/>
  <object id="960" gid="105" x="4823.14" y="3237.21" width="220" height="270"/>
  <object id="961" gid="104" x="4741.43" y="3331.35" width="198" height="243"/>
  <object id="962" gid="106" x="3277.67" y="4813.26" width="220" height="270"/>
  <object id="963" gid="115" x="3513.84" y="4595.29" width="110" height="80"/>
  <object id="964" gid="141" x="4494.4" y="3624" width="150" height="110"/>
  <object id="965" gid="136" x="3958.4" y="4169.6" width="80" height="90"/>
  <object id="966" gid="115" x="4590.47" y="3542.47" width="110" height="80"/>
  <object id="967" gid="108" x="3406.68" y="4756.83" width="150" height="300"/>
  <object id="968" gid="135" x="4083.6" y="4083.6" width="110" height="130"/>
  <object id="969" gid="134" x="4032.4" y="4141.2" width="110" height="90"/>
  <object id="970" gid="115" x="4514.07" y="3661.39" width="110" height="80"/>
  <object id="971" gid="129" x="4351.6" y="3833.2" width="330" height="330"/>
  <object id="972" gid="108" x="3594.04" y="4625.19" width="150" height="300"/>
  <object id="973" gid="109" x="4728.55" y="3494.03" width="173" height="345"/>
  <object id="974" gid="116" x="3666.12" y="4567.66" width="110" height="80"/>
  <object id="975" gid="103" x="4840.2" y="3436.21" width="246" height="302"/>
  <object id="976" gid="121" x="3831.94" y="4466.98" width="103" height="88"/>
  <object id="977" gid="107" x="3578.72" y="4727.74" width="209" height="257"/>
  <object id="978" gid="106" x="4568.45" y="3738.42" width="220" height="270"/>
  <object id="979" gid="114" x="4500.43" y="3816.97" width="110" height="80"/>
  <object id="980" gid="102" x="4709.44" y="3639.01" width="220" height="270"/>
  <object id="981" gid="108" x="3747.03" y="4627.18" width="150" height="300"/>
  <object id="982" gid="138" x="4368" y="4022.4" width="100" height="80"/>
  <object id="983" gid="102" x="3578.36" y="4827.5" width="220" height="270"/>
  <object id="984" gid="108" x="4645.85" y="3798.78" width="150" height="300"/>
  <object id="985" gid="109" x="3864.59" y="4582.49" width="173" height="345"/>
  <object id="986" gid="103" x="3704.28" y="4759.12" width="246" height="302"/>
  <object id="987" gid="103" x="4842.79" y="3634.29" width="246" height="302"/>
  <object id="988" gid="109" x="4566.11" y="3919.67" width="173" height="345"/>
  <object id="989" gid="115" x="4023.41" y="4515.99" width="110" height="80"/>
  <object id="990" gid="130" x="4217.2" y="4326" width="330" height="330"/>
  <object id="991" gid="115" x="4522.44" y="4043.46" width="110" height="80"/>
  <object id="992" gid="109" x="3988.82" y="4599.25" width="173" height="345"/>
  <object id="993" gid="109" x="4820.55" y="3773.41" width="173" height="345"/>
  <object id="994" gid="104" x="3799.12" y="4807.55" width="198" height="243"/>
  <object id="995" gid="102" x="3906.83" y="4729.46" width="220" height="270"/>
  <object id="996" gid="105" x="4716.24" y="3925.27" width="220" height="270"/>
  <object id="997" gid="103" x="4088.03" y="4576.03" width="246" height="302"/>
  <object id="998" gid="108" x="4285" y="4423.35" width="150" height="300"/>
  <object id="999" gid="112" x="4458.17" y="4256.12" width="80" height="70"/>
  <object id="1000" gid="108" x="4552.58" y="4176.35" width="150" height="300"/>
  <object id="1001" gid="109" x="4638.87" y="4093.96" width="173" height="345"/>
  <object id="1002" gid="104" x="3920.75" y="4838.47" width="198" height="243"/>
  <object id="1003" gid="102" x="4742.16" y="4031.92" width="220" height="270"/>
  <object id="1004" gid="107" x="4815.03" y="3959.56" width="209" height="257"/>
  <object id="1005" gid="114" x="4280.61" y="4558.12" width="110" height="80"/>
  <object id="1006" gid="108" x="4119.95" y="4724.93" width="150" height="300"/>
  <object id="1007" gid="119" x="4451.23" y="4399.52" width="80" height="60"/>
  <object id="1008" gid="109" x="4198.44" y="4658.75" width="173" height="345"/>
  <object id="1009" gid="102" x="4556.43" y="4321.64" width="220" height="270"/>
  <object id="1010" gid="102" x="4635.55" y="4247.74" width="220" height="270"/>
  <object id="1011" gid="105" x="4725.18" y="4191.57" width="220" height="270"/>
  <object id="1012" gid="102" x="4095.43" y="4843.09" width="220" height="270"/>
  <object id="1013" gid="105" x="4388.64" y="4564.88" width="220" height="270"/>
  <object id="1014" gid="102" x="4532.83" y="4434.93" width="220" height="270"/>
  <object id="1015" gid="103" x="4194.96" y="4813.65" width="246" height="302"/>
  <object id="1016" gid="103" x="4838.58" y="4175.1" width="246" height="302"/>
  <object id="1017" gid="102" x="4663.38" y="4366.01" width="220" height="270"/>
  <object id="1018" gid="109" x="4317.37" y="4720.77" width="173" height="345"/>
  <object id="1019" gid="109" x="4762.95" y="4359.9" width="173" height="345"/>
  <object id="1020" gid="107" x="4422.4" y="4714.88" width="209" height="257"/>
  <object id="1021" gid="106" x="4600.83" y="4566.34" width="220" height="270"/>
  <object id="1022" gid="102" x="4716.55" y="4466.43" width="220" height="270"/>
  <object id="1023" gid="109" x="4377" y="4809.13" width="173" height="345"/>
  <object id="1024" gid="106" x="4519.12" y="4671.68" width="220" height="270"/>
  <object id="1025" gid="104" x="4713.11" y="4580.33" width="198" height="243"/>
  <object id="1026" gid="103" x="4522.59" y="4802.23" width="246" height="302"/>
  <object id="1027" gid="108" x="4810.06" y="4515.74" width="150" height="300"/>
  <object id="1028" gid="105" x="4625.73" y="4740.78" width="220" height="270"/>
  <object id="1029" gid="109" x="4800.88" y="4625.36" width="173" height="345"/>
  <object id="1030" gid="104" x="4772.54" y="4737.03" width="198" height="243"/>
  <object id="1031" gid="104" x="4782.66" y="4835.8" width="198" height="243"/>
 </objectgroup>
 <objectgroup id="4" name="interactives">
  <object id="1032" type="boss_gate" gid="158" x="808" y="1422.4" width="170" height="130">
   <properties>
    <property name="boss" value="grizzlefang"/>
   </properties>
  </object>
  <object id="1033" type="boss_gate" gid="158" x="878.4" y="1422.4" width="170" height="130">
   <properties>
    <property name="boss" value="grizzlefang"/>
   </properties>
  </object>
  <object id="1034" type="boss_gate" gid="158" x="948.8" y="1422.4" width="170" height="130">
   <properties>
    <property name="boss" value="grizzlefang"/>
   </properties>
  </object>
  <object id="1035" type="boss_gate" gid="158" x="1019.2" y="1422.4" width="170" height="130">
   <properties>
    <property name="boss" value="grizzlefang"/>
   </properties>
  </object>
  <object id="1036" type="boss_gate" gid="158" x="1089.6" y="1422.4" width="170" height="130">
   <properties>
    <property name="boss" value="grizzlefang"/>
   </properties>
  </object>
  <object id="1037" name="grizzlefang_hollow" type="waypoint" gid="162" x="1092.4" y="1783.6" width="140" height="200">
   <properties>
    <property name="waypoint" value="grizzlefang_hollow"/>
   </properties>
  </object>
  <object id="1038" type="resource" gid="124" x="1246.8" y="1963.6" width="120" height="110">
   <properties>
    <property name="node" value="copper_vein"/>
   </properties>
  </object>
  <object id="1039" type="resource" gid="126" x="1895.6" y="1831.6" width="96" height="96">
   <properties>
    <property name="node" value="sniffleleaf"/>
   </properties>
  </object>
  <object id="1040" type="resource" gid="126" x="2010.8" y="2062" width="96" height="96">
   <properties>
    <property name="node" value="sniffleleaf"/>
   </properties>
  </object>
  <object id="1041" name="snagtooth_camp" type="waypoint" gid="162" x="2679.6" y="1898.8" width="140" height="200">
   <properties>
    <property name="waypoint" value="snagtooth_camp"/>
   </properties>
  </object>
  <object id="1042" name="wagon_crossroads" type="waypoint" gid="162" x="2180.4" y="2846" width="140" height="200">
   <properties>
    <property name="waypoint" value="wagon_crossroads"/>
   </properties>
  </object>
  <object id="1043" type="resource" gid="124" x="1477.2" y="3550.8" width="120" height="110">
   <properties>
    <property name="node" value="copper_vein"/>
   </properties>
  </object>
  <object id="1044" type="resource" gid="126" x="1767.6" y="3380.4" width="96" height="96">
   <properties>
    <property name="node" value="sniffleleaf"/>
   </properties>
  </object>
  <object id="1045" name="hollow_chest" type="chest" gid="164" x="3761.6" y="1393.6" width="110" height="100">
   <properties>
    <property name="loot" value="hollow_chest"/>
    <property name="level" value="5"/>
   </properties>
  </object>
  <object id="1046" type="resource" gid="124" x="3883.6" y="1336.4" width="120" height="110">
   <properties>
    <property name="node" value="copper_vein"/>
   </properties>
  </object>
  <object id="1047" type="resource" gid="124" x="3576.4" y="1694.8" width="120" height="110">
   <properties>
    <property name="node" value="copper_vein"/>
   </properties>
  </object>
  <object id="1048" type="resource" gid="126" x="1498.8" y="3790" width="96" height="96">
   <properties>
    <property name="node" value="sniffleleaf"/>
   </properties>
  </object>
  <object id="1049" type="resource" gid="124" x="3064.4" y="2296.4" width="120" height="110">
   <properties>
    <property name="node" value="copper_vein"/>
   </properties>
  </object>
  <object id="1050" type="resource" gid="124" x="1835.6" y="3602" width="120" height="110">
   <properties>
    <property name="node" value="copper_vein"/>
   </properties>
  </object>
  <object id="1051" type="resource" gid="124" x="1656.4" y="3845.2" width="120" height="110">
   <properties>
    <property name="node" value="copper_vein"/>
   </properties>
  </object>
  <object id="1052" type="resource" gid="126" x="3303.6" y="2318" width="96" height="96">
   <properties>
    <property name="node" value="sniffleleaf"/>
   </properties>
  </object>
  <object id="1053" type="resource" gid="126" x="3124.4" y="2676.4" width="96" height="96">
   <properties>
    <property name="node" value="sniffleleaf"/>
   </properties>
  </object>
  <object id="1054" type="resource" gid="126" x="3342" y="2586.8" width="96" height="96">
   <properties>
    <property name="node" value="sniffleleaf"/>
   </properties>
  </object>
  <object id="1055" type="resource" gid="126" x="2881.2" y="3150" width="96" height="96">
   <properties>
    <property name="node" value="sniffleleaf"/>
   </properties>
  </object>
  <object id="1056" name="buckleburg_gate" type="waypoint" gid="162" x="3639.6" y="3985.2" width="140" height="200">
   <properties>
    <property name="waypoint" value="buckleburg_gate"/>
   </properties>
  </object>
  <object id="1057" type="resource" gid="126" x="4250.8" y="3918" width="96" height="96">
   <properties>
    <property name="node" value="sniffleleaf"/>
   </properties>
  </object>
 </objectgroup>
 <objectgroup id="5" name="gameplay">
  <object id="1058" name="start" type="player_start" x="3712" y="3993.6">
   <point/>
  </object>
  <object id="1059" name="bramble" type="npc" x="3686.4" y="3699.2">
   <properties>
    <property name="npc" value="captain_bramble"/>
   </properties>
   <point/>
  </object>
  <object id="1060" name="hilda" type="npc" x="4044.8" y="4377.6">
   <properties>
    <property name="npc" value="hilda_hammerbottom"/>
   </properties>
   <point/>
  </object>
  <object id="1061" name="granny" type="npc" x="4160" y="3891.2">
   <properties>
    <property name="npc" value="granny_gristle"/>
   </properties>
   <point/>
  </object>
  <object id="1062" name="pip" type="npc" x="2368" y="2918.4">
   <properties>
    <property name="npc" value="pip_puddlefoot"/>
   </properties>
   <point/>
  </object>
  <object id="1063" name="Buckleburg Gate" type="area" x="3072" y="3264" width="1280" height="1152">
   <properties>
    <property name="title" value="Buckleburg Gate"/>
    <property name="subtitle" value="Last stop before the goblins"/>
   </properties>
   <ellipse/>
  </object>
  <object id="1064" name="Wagon Crossroads" type="area" x="1920" y="2560" width="896" height="768">
   <properties>
    <property name="title" value="Wagon Crossroads"/>
    <property name="subtitle" value="Pip has had better days"/>
   </properties>
   <ellipse/>
  </object>
  <object id="1065" name="Mossy Meadow" type="area" x="1152" y="3296" width="896" height="704">
   <properties>
    <property name="title" value="Mossy Meadow"/>
    <property name="subtitle" value="The rocks here are suspiciously shiny"/>
   </properties>
   <ellipse/>
  </object>
  <object id="1066" name="Sniffle Glade" type="area" x="2848" y="2112" width="704" height="640">
   <properties>
    <property name="title" value="Sniffle Glade"/>
    <property name="subtitle" value="Achoo."/>
   </properties>
   <ellipse/>
  </object>
  <object id="1067" name="Old Plank Bridge" type="area" x="1248" y="2400" width="576" height="576">
   <properties>
    <property name="title" value="Old Plank Bridge"/>
    <property name="subtitle" value="Structurally optimistic"/>
   </properties>
   <ellipse/>
  </object>
  <object id="1068" name="Snagtooth's Camp" type="area" x="1920" y="640" width="1408" height="1152">
   <properties>
    <property name="title" value="Snagtooth&apos;s Camp"/>
    <property name="subtitle" value="Smells like soup and bad decisions"/>
   </properties>
   <ellipse/>
  </object>
  <object id="1069" name="Suspicious Hollow" type="area" x="3328" y="1152" width="768" height="640">
   <properties>
    <property name="title" value="Suspicious Hollow"/>
    <property name="subtitle" value="Nothing to see here. Probably."/>
   </properties>
   <ellipse/>
  </object>
  <object id="1070" name="Grizzlefang's Hollow" type="area" x="352" y="288" width="1088" height="1088">
   <properties>
    <property name="title" value="Grizzlefang&apos;s Hollow"/>
    <property name="subtitle" value="THIS SEEMS BAD"/>
   </properties>
   <ellipse/>
  </object>
  <object id="1071" name="road_scouts" type="spawn" x="2848" y="3328" width="256" height="192">
   <properties>
    <property name="pack" value="goblin_scouts"/>
    <property name="level" value="1"/>
    <property name="respawn" value="45"/>
   </properties>
  </object>
  <object id="1072" name="meadow_scouts" type="spawn" x="1600" y="3424" width="320" height="256">
   <properties>
    <property name="pack" value="goblin_scouts"/>
    <property name="level" value="2"/>
    <property name="respawn" value="45"/>
   </properties>
  </object>
  <object id="1073" name="glade_scouts" type="spawn" x="3104" y="2336" width="256" height="256">
   <properties>
    <property name="pack" value="goblin_raiders"/>
    <property name="level" value="2"/>
    <property name="respawn" value="50"/>
   </properties>
  </object>
  <object id="1074" name="north_patrol" type="spawn" x="2400" y="2240" width="256" height="256">
   <properties>
    <property name="pack" value="goblin_patrol"/>
    <property name="level" value="3"/>
    <property name="respawn" value="60"/>
   </properties>
  </object>
  <object id="1075" name="camp_west" type="spawn" x="2080" y="1056" width="256" height="320">
   <properties>
    <property name="pack" value="goblin_patrol"/>
    <property name="level" value="4"/>
    <property name="respawn" value="60"/>
   </properties>
  </object>
  <object id="1076" name="camp_east" type="spawn" x="2912" y="1120" width="256" height="320">
   <properties>
    <property name="pack" value="goblin_ritual"/>
    <property name="level" value="4"/>
    <property name="respawn" value="60"/>
   </properties>
  </object>
  <object id="1077" name="camp_gate" type="spawn" x="2464" y="1504" width="320" height="192">
   <properties>
    <property name="pack" value="goblin_camp_guard"/>
    <property name="level" value="5"/>
    <property name="respawn" value="75"/>
   </properties>
  </object>
  <object id="1078" name="warboss" type="spawn" x="2528" y="928" width="192" height="128">
   <properties>
    <property name="pack" value="warboss_snagtooth"/>
    <property name="level" value="6"/>
    <property name="respawn" value="240"/>
   </properties>
  </object>
  <object id="1079" name="bridge_patrol" type="spawn" x="1056" y="2272" width="256" height="256">
   <properties>
    <property name="pack" value="goblin_raiders"/>
    <property name="level" value="5"/>
    <property name="respawn" value="60"/>
   </properties>
  </object>
  <object id="1080" name="boss_approach" type="spawn" x="672" y="1984" width="256" height="256">
   <properties>
    <property name="pack" value="goblin_ritual"/>
    <property name="level" value="6"/>
    <property name="respawn" value="75"/>
   </properties>
  </object>
  <object id="1081" name="hollow_hoarders" type="spawn" x="3552" y="1408" width="256" height="192">
   <properties>
    <property name="pack" value="goblin_hoarders"/>
    <property name="level" value="5"/>
    <property name="respawn" value="120"/>
   </properties>
  </object>
  <object id="1082" name="stream_patrol" type="spawn" x="1760" y="1792" width="256" height="256">
   <properties>
    <property name="pack" value="goblin_scouts"/>
    <property name="level" value="4"/>
    <property name="respawn" value="60"/>
   </properties>
  </object>
  <object id="1083" name="wagon_defense" type="event" x="1984" y="2624" width="768" height="640">
   <properties>
    <property name="event" value="wagon_wheel_wipeout"/>
   </properties>
   <ellipse/>
  </object>
  <object id="1084" name="grizzlefang" type="boss_arena" x="448" y="384" width="896" height="896">
   <properties>
    <property name="boss" value="grizzlefang"/>
    <property name="level" value="8"/>
   </properties>
   <ellipse/>
  </object>
  <object id="1085" name="grizzlefang" type="boss_spawn" x="806.4" y="729.6">
   <properties>
    <property name="boss" value="grizzlefang"/>
   </properties>
   <point/>
  </object>
  <object id="1086" name="enter_camp" type="trigger" x="2112" y="800" width="1024" height="832">
   <properties>
    <property name="discover" value="snagtooth_camp"/>
   </properties>
   <ellipse/>
  </object>
  <object id="1087" name="enter_hollow" type="trigger" x="3424" y="1216" width="576" height="512">
   <properties>
    <property name="discover" value="suspicious_hollow"/>
   </properties>
   <ellipse/>
  </object>
 </objectgroup>
</map>
